!!!cenid: 16xx:1690
!!!COM: Förster, Kaspar
!!!COM-rismID: pe30006147
!!!CDT: ~1616-1673/02/02
!!!CNT: German
!!!OTL: Celebramus te Jehova
!!!PDT: 1690
!!!AGN:
!!!SMS-siglum: S-Uu
!!!SMS-shelfmark: Vok. mus. i hs. 54:8
!!!SMS-shelfwork: W
!!!SMS-variant:
!!!SMS-altvar:
!!!NIFC-rismSourceID: 190008706
!!!NIFC-rismChildID: 190008706
!!!NIFC-islandoraID: none
!!!URL-pdf-islandora:
!!!URL-scan: https://www2.musik.uu.se/duben/presentationSource1.php?Select_Dnr=809 @EN{Scan on Academica} @PL{Skany w zewnętrznej bibliotece cyfrowej}
!!!ONB-nifc: UWAGA: poszczególne partie dostępne po kliknięciu w „browse part”. Informacje nt stron tytułowych w opisie na stronie lub na RISM.
!!!AIN: 1 organ 2 soprn 1 viole 2 violn
!!!key: F
**kern	**fba	**kern	**kern	**kern	**kern	**text	**kern	**text
*part6	*part6	*part5	*part4	*part3	*part2	*part2	*part1	*part1
*staff6	*	*staff5	*staff4	*staff3	*staff2	*staff2	*staff1	*staff1
*I"Organo	*	*I"Violono.	*I"Violino 2 do.	*I"Violino 1	*I"Canto 2 do.	*	*I"Canto. I.	*
*I'org	*	*I'vlne	*I'vl II	*I'vl I	*I'S II	*	*I'S I	*
*ICklav	*	*ICstr	*ICstr	*ICstr	*ICvox	*	*ICvox	*
*Iorgan	*	*Iviole	*Ivioln	*Ivioln	*Isoprn	*	*Isoprn	*
*clefF4	*	*clefF4	*clefG2	*clefG2	*clefC1	*	*clefC1	*
*k[b-]	*	*k[b-]	*k[b-]	*k[b-]	*k[b-]	*	*k[b-]	*
*F:	*	*F:	*F:	*F:	*F:	*	*F:	*
*M4/4	*	*M4/4	*M4/4	*M4/4	*M4/4	*	*M4/4	*
*met(C)	*	*met(C)	*met(C)	*met(C)	*met(C)	*	*met(C)	*
=1-	=1-	=1-	=1-	=1-	=1-	=1-	=1-	=1-
!!LO:TX:t=P:problem: VHV nie wyświetla cyfrowania, po uzgodnieniu z Jackiem Iwaszko cyfrowanie zapisane początkowo w fing a następnie zmieniono na fba - możliwe nieliczne błędy w zapisie po konwersji	!	!	!	!	!	!	!	!	!	!	!	!	!	!	!	!	!	!	!	!	!	!	!
*2\right	*	*	*	*	*	*	*	*
!LO:TX:b:t=Celebramus te Jehova	!	!	!	!	!	!LO:TX:t=P:problem: all\right	!	!
!LO:TX:a:t=instro	!	!LO:TX:a:t=v.v.	!	!	!	!	!	!
!LO:TX:a:B:t=Motetto	!	!LO:TX:b:t=Celebramus te	!LO:TX:b:t=Celebramus te Jehova	!LO:TX:b:t=Celebramus te Jehova	!LO:TX:a:t=8.	!	!LO:TX:a:t=8.	!
*	*	*	*	*	*	*	*	*
2F\	.	2F\	4r	4r	00r	.	00r	.
.	.	.	4a/	4cc\	.	.	.	.
4D/	6	4D/	4b-/	4dd\	.	.	.	.
!	!	!	!LO:TX:t=P:problem: kreska pseudotaktowa	!LO:TX:t=P:problem: kreska pseudotaktowa	!	!	!	!
4AA/	6	4AA/	[4cc\	4ff\	.	.	.	.
=2-	=2-	=2-	=2-	=2-	=2-	=2-	=2-	=2-
4BB-/	10 9:8	4BB-/	8cc\]	4.dd\	.	.	.	.
.	.	.	8cc\J	.	.	.	.	.
4B-\	.	4B-\	4b-/	.	.	.	.	.
.	.	.	.	8dd\	.	.	.	.
4F\	5:6	4F\	4a/	8cc\L	.	.	.	.
.	.	.	.	8cc\J	.	.	.	.
!	!	!	!	!LO:TX:t=P:problem: kreska pseudotaktowa	!	!	!	!
8r	.	8r	8rf	4dd\	.	.	.	.
!LO:TX:t=P:problem: kreska pseudotaktowa	!	!LO:TX:t=P:problem: kreska pseudotaktowa	!LO:TX:t=P:problem: kreska pseudotaktowa	!	!	!	!	!
8FF/	6	8FF/	8a/	.	.	.	.	.
=3-	=3-	=3-	=3-	=3-	=3-	=3-	=3-	=3-
!	!	!	!LO:N:acc=#	!	!	!	!	!
4GG/	5:6 #	4GG/	4bn/	8rcc	.	.	.	.
.	.	.	.	8dd\	.	.	.	.
8r	.	8r	8r	4ee\	.	.	.	.
!	!	!	!LO:TX:t=P:problem: # below	!	!	!	!	!
!	!	!	!LO:N:acc=#	!	!	!	!	!
8GG/	#	8GG/	8b/	.	.	.	.	.
4AA/	5:6	4AA/	4cc\	8rcc	.	.	.	.
.	.	.	.	8ee\	.	.	.	.
*	*	*	*	*2\right	*	*	*	*
8r	.	8r	8r	2ff\	.	.	.	.
!LO:TX:t=P:problem: kreska pseudotaktowa	!	!	!	!	!	!	!	!
8AA/	6	8AA/	8cc\	.	.	.	.	.
=4-	=4-	=4-	=4-	=4-	=4-	=4-	=4-	=4-
!LO:N:acc=#	!	!LO:N:acc=#	!	!	!	!	!	!
4BBn/	5-r	4BBn/	4dd\	.	.	.	.	.
*	*	*	*2\right	*	*	*	*	*
4C/	.	4C/	2cc\	4ee\	.	.	.	.
4FF/	6 5	4FF/	.	4.dd\	.	.	.	.
!	!	!	!LO:TX:t=P:problem: kreska pseudotaktowa	!	!	!	!	!
!	!	!LO:TX:t=P:problem: kreska pseudotaktowa	!LO:N:acc=#	!	!	!	!	!
4GG/	#	4GG/	4bn/	.	.	.	.	.
!	!	!	!	!LO:TX:t=P:problem: kreska pseudotaktowa	!	!	!	!
.	.	.	.	8dd\	.	.	.	.
=5-	=5-	=5-	=5-	=5-	=5-	=5-	=5-	=5-
4C/	.	4C/	4cc\	8ee\L	00r	.	00r	.
.	.	.	.	8gg\J	.	.	.	.
8r	.	8r	8r	4aa\	.	.	.	.
8C/	6	8C/	8ee\	.	.	.	.	.
4D/	5:6-r	4D/	4ff\	8ree	.	.	.	.
.	.	.	.	8aa\	.	.	.	.
!	!	!	!	!LO:TX:t=P:problem: kreska pseudotaktowa	!	!	!	!
8r	.	8r	8r	[>4bb-X\	.	.	.	.
!LO:TX:t=P:problem: kreska pseudotaktowa	!	!	!LO:TX:t=P:problem: kreska pseudotaktowa	!	!	!	!	!
8D/	6-r	8D/	8ff\	.	.	.	.	.
=6-	=6-	=6-	=6-	=6-	=6-	=6-	=6-	=6-
4E\	5-r	4E\	4gg\	4bb-\]	.	.	.	.
4F\	.	4F\	2ff\	4aa\	.	.	.	.
4BB-y/	6 5	4BB-y/	.	4.gg\	.	.	.	.
!	!	!LO:TX:t=P:problem: kreska pseudotaktowa	!	!	!	!	!	!
4C/	.	4C/	4ee\	.	.	.	.	.
!	!	!	!	!LO:TX:t=P:problem: kreska pseudotaktowa	!	!	!	!
.	.	.	.	8gg\	.	.	.	.
=7-	=7-	=7-	=7-	=7-	=7-	=7-	=7-	=7-
!	!	!	!	!LO:TX:t=P:problem:takt zapisany u dołu strony 	!	!	!	!
4FF/	.	4FF/	4ff\	4aa\	.	.	.	.
4AA/	6	4AA/	8r	8r	.	.	.	.
.	.	.	8ff\	8aa\	.	.	.	.
4BB-/	6:5	4BB-/	4.ff\	4.gg\	.	.	.	.
!LO:TX:t=P:problem: kreska pseudotaktowa	!	!LO:TX:t=P:problem: kreska pseudotaktowa	!	!	!	!	!	!
4C/	5 4:3	4C/	.	.	.	.	.	.
!	!	!	!LO:TX:t=P:problem: kreska pseudotaktowa	!LO:TX:t=P:problem: kreska pseudotaktowa	!	!	!	!
.	.	.	8ff\	8gg\	.	.	.	.
=8-	=8-	=8-	=8-	=8-	=8-	=8-	=8-	=8-
!	!	!LO:TX:t=P:problem:pominięty fragment	!	!	!	!	!	!
4D/	.	1ryy	4.ff\	4.gg\	.	.	.	.
4AA/	7:6	.	.	.	.	.	.	.
.	.	.	8ff\	8gg\	.	.	.	.
*custos:BB-	*	*	*	*	*	*	*	*
!LO:LB:g=original	!	!	!	!	!	!	!	!
4BB-/	6 5	.	4.ff\	2gg\	.	.	.	.
!LO:TX:t=P:problem: kreska pseudotaktowa	!	!	!	!	!	!	!	!
4C/	.	.	.	.	.	.	.	.
!	!	!	!LO:TX:t=P:problem: kreska pseudotaktowa	!	!	!	!	!
.	.	.	8ee\	.	.	.	.	.
=9-	=9-	=9-	=9-	=9-	=9-	=9-	=9-	=9-
!LO:TX:a:t=voci	!	!LO:TX:a:t=c. c.	!	!	!	!	!	!
4FF/	.	4FF/	2ff\	2aa\	4f/	Ce-	4f/	Ce-
!	!	!LO:TX:b:t=celebramus	!	!	!	!	!	!
4F\	.	4F\	.	.	4f/	-le-	4f/	-le-
4D/	.	4D/	2r	2rff	4.f/	-bra-	4.f/	-bra-
4C/	4	4C/	.	.	.	.	.	.
!	!	!	!	!	!LO:TX:t=P:problem: kreska pseudotaktowa	!	!LO:TX:t=P:problem: kreska pseudotaktowa	!
.	.	.	.	.	8f/	-mus	8f/	-mus
*	*	*custos:BB-	*	*custos:a	*	*	*	*
!	!	!LO:LB:g=original	!	!LO:LB:g=original	!	!	!	!
=10-	=10-	=10-	=10-	=10-	=10-	=10-	=10-	=10-
4BB-/	6 5	4BB-/	1r	1r	4.f/	te	4.f/	te
4AA/	7:6	4AA/	.	.	.	.	.	.
.	.	.	.	.	8f/	Je-	8g/	Je-
!	!	!	!	!	!	!	!LO:TX:a:t=t.	!
4BB-/	6 5	4BB-/	.	.	4.f/	-ho-	2g/	-ho-
!LO:TX:t=P:problem: kreska pseudotaktowa	!	!LO:TX:t=P:problem: kreska pseudotaktowa	!	!	!	!	!	!
4C/	.	4C/	.	.	.	.	.	.
!	!	!	!	!	!LO:TX:t=P:problem: kreska pseudotaktowa	!	!	!
.	.	.	.	.	8e/	.	.	.
=11-	=11-	=11-	=11-	=11-	=11-	=11-	=11-	=11-
!LO:TX:a:t=inst&colon;	!	!LO:TX:a:t=v. v.	!	!	!	!	!	!
4FF/	.	4FF/	4f/	4a/	2f/	-va	2f/	-va
4F\	.	4F\	4f/	4a/	.	.	.	.
4D/	.	4D/	4.f/	4.a/	2rf	.	2rf	.
!	!	!LO:TX:t=P:problem: kreska pseudotaktowa	!	!	!	!	!	!
4C/	6 4	4C/	.	.	.	.	.	.
.	.	.	8f/	8a/	.	.	.	.
=12-	=12-	=12-	=12-	=12-	=12-	=12-	=12-	=12-
4BB-/	.	4BB-/	4.f/	8b-/L	1r	.	1r	.
.	.	.	.	8a/J	.	.	.	.
4AA/	6	4AA/	.	8cc/L	.	.	.	.
.	.	.	8f/	16b-/L	.	.	.	.
.	.	.	.	16a/JJ	.	.	.	.
4BB-/	6 5	4BB-/	4.f/	16g/LL	.	.	.	.
.	.	.	.	16f/	.	.	.	.
.	.	.	.	16g/	.	.	.	.
.	.	.	.	16a/JJ	.	.	.	.
!LO:TX:t=P:problem: kreska pseudotaktowa	!	!LO:TX:t=P:problem: kreska pseudotaktowa	!	!LO:TX:t=P:problem: kreska pseudotaktowa	!	!	!	!
4C/	.	4C/	.	4g/	.	.	.	.
.	.	.	8e/	.	.	.	.	.
=13-	=13-	=13-	=13-	=13-	=13-	=13-	=13-	=13-
!LO:TX:a:t=voc	!	!LO:TX:a:t=voci	!	!	!	!	!	!
4FF/	.	4FF/	2f/	2a/	4cc\	Ce-	4cc\	Ce-
4F\	.	4F\	.	.	4cc\	-le-	4cc\	-le-
4E\	6	4E\	2r	2rg	4.cc\	-bra-	4.cc\	-bra-
4F\	.	4F\	.	.	.	.	.	.
!	!	!	!	!	!LO:TX:t=P:problem: kreska pseudotaktowa	!	!LO:TX:t=P:problem: kreska pseudotaktowa	!
.	.	.	.	.	8cc\	-mus	8cc\	-mus
=14-	=14-	=14-	=14-	=14-	=14-	=14-	=14-	=14-
4C/	.	4C/	1r	1r	4.cc\	te	4.cc\	te
4EE/	6	4EE/	.	.	.	.	.	.
.	.	.	.	.	8dd\	Je-	8dd\	Je-
*	*	*	*	*	*	*	*2\right	*
!	!	!	!	!	!LO:TX:t=P:problem: kreska pseudotaktowa	!	!	!
4FF/	6 5	4FF/	.	.	(4.cc\	-ho-	2dd\	-ho-
!LO:TX:t=P:problem: kreska pseudotaktowa	!	!LO:TX:t=P:problem: kreska pseudotaktowa	!	!	!	!	!	!
4GG/	4#r	4GG/	.	.	.	.	.	.
.	.	.	.	.	8b-\)	.	.	.
=15-	=15-	=15-	=15-	=15-	=15-	=15-	=15-	=15-
!LO:TX:a:t=inst&colon;	!	!LO:TX:a:t=inst.	!	!	!	!	!	!
4CC/	.	4CC/	4cc\	4ee\	2cc\	-va	2cc\	-va
4C/	.	4C/	4cc\	4ee\	.	.	.	.
4AA/	.	4AA/	4.cc\	4.ee\	2rb	.	2rb	.
4GG/	6 4	4GG/	.	.	.	.	.	.
.	.	.	8cc\	8ee\	.	.	.	.
=16-	=16-	=16-	=16-	=16-	=16-	=16-	=16-	=16-
4FF/	.	4FF/	4.cc\	8ff\L	1r	.	1r	.
.	.	.	.	8ee\J	.	.	.	.
4EE/	6	4EE/	.	8gg\L	.	.	.	.
.	.	.	8cc\	16ff\L	.	.	.	.
.	.	.	.	16ee\JJ	.	.	.	.
4FF/	6 5	4FF/	4.cc\	16dd\LL	.	.	.	.
.	.	.	.	16cc\	.	.	.	.
.	.	.	.	16dd\	.	.	.	.
.	.	.	.	16ee\JJ	.	.	.	.
!	!	!LO:TX:t=P:problem: kreska pseudotaktowa	!	!LO:TX:t=P:problem: kreska pseudotaktowa	!	!	!	!
4GG/	4#r	4GG/	.	4dd\	.	.	.	.
!	!	!	!LO:TX:t=P:problem: # below	!	!	!	!	!
!	!	!	!LO:N:acc=#	!	!	!	!	!
.	.	.	8bn/	.	.	.	.	.
*custos:C	*	*	*	*	*	*	*	*
!LO:LB:g=original	!	!	!	!	!	!	!	!
=17-	=17-	=17-	=17-	=17-	=17-	=17-	=17-	=17-
!LO:TX:a:t=inst	!	!LO:TX:a:t=voci	!	!	!	!	!	!
4C/	.	4C/	4cc\	4ee\	2rf	.	8.g/	quo-
.	.	.	.	.	.	.	16g/	-ni-
4BB-/	.	4BB-/	4r	4rdd	.	.	8a\	-am
.	.	.	.	.	.	.	8b-\	i-
4AA/	.	4AA/	2r	2rdd	8.c/	quo-	4cc\	-ra-
.	.	.	.	.	16c/	-ni-	.	.
4GG/	5:6|	4GG/	.	.	8d/	-am	8b-\	-tus
!	!	!	!	!	!LO:TX:t=P:problem: kreska pseudotaktowa	!	!LO:TX:t=P:problem: kreska pseudotaktowa	!
.	.	.	.	.	8e/	i-	8b-\	fu-
=18-	=18-	=18-	=18-	=18-	=18-	=18-	=18-	=18-
4FF/	.	4FF/	0r	1r	4f/	-ra-	4a\	-i-
4AA/	6	4AA/	.	.	8f/	-tus	8f/	-sti
!	!	!	!	!	!LO:TX:t=P:problem: kreska pseudotaktowa	!	!	!
.	.	.	.	.	8cc\	fu-	8f/	fu-
!	!	!	!	!	!LO:LB:g=original	!	!LO:LB:g=original	!
4BB-/	.	4BB-/	.	.	(8b-\L	-i-	4.f/	-i-
.	.	.	.	.	8a\J)	.	.	.
!LO:TX:t=P:problem: kreska pseudotaktowa	!	!LO:TX:t=P:problem: kreska pseudotaktowa	!	!	!	!	!	!
4FF/	.	4FF/	.	.	(8a\L	-sti	.	.
!	!	!	!	!	!LO:TX:t=P:problem: kreska pseudotaktowa	!	!	!
.	.	.	.	.	8g\J)	.	8f/	-sti
=19-	=19-	=19-	=19-	=19-	=19-	=19-	=19-	=19-
4BB-/	6 5	4BB-/	.	2rdd	16g/LL	no-	(4.f/	no-
.	.	.	.	.	16f/	.	.	.
.	.	.	.	.	16g/	.	.	.
.	.	.	.	.	16a/JJ	.	.	.
4C/	.	4C/	.	.	4g/	.	.	.
.	.	.	.	.	.	.	8e/)	.
!LO:TX:a:t=viol	!	!LO:TX:a:t=inst&colon;	!	!	!	!	!	!
4F\	.	4F\	.	8.cc\L	4f/	-bis	2f/	-bis
.	.	.	.	16cc\K	.	.	.	.
4E\	.	4E\	.	8dd\	4re	.	.	.
!	!	!	!	!LO:TX:t=P:problem: kreska pseudotaktowa	!	!	!	!
.	.	.	.	8ee\J	.	.	.	.
!	!	!LO:LB:g=original	!	!	!	!	!	!
=20-	=20-	=20-	=20-	=20-	=20-	=20-	=20-	=20-
4D/	.	4D/	8.f/L	4ff\	0r	.	0r	.
.	.	.	16f/K	.	.	.	.	.
4C/	-	4C/	8g/	4ee-X\	.	.	.	.
.	.	.	8a/J	.	.	.	.	.
4BB-/	.	4BB-/	8b-y/L	4.dd\	.	.	.	.
.	.	.	8a/	.	.	.	.	.
!LO:TX:t=P:problem: kreska pseudotaktowa	!	!	!	!	!	!	!	!
4D/	6	4D/	8b-/	.	.	.	.	.
.	.	.	8f/J	8ff\	.	.	.	.
!	!	!	!	!LO:LB:g=original	!	!	!	!
=21-	=21-	=21-	=21-	=21-	=21-	=21-	=21-	=21-
4E-X\	.	4E-X\	8g/L	8b-\L	.	.	.	.
.	.	.	8a/	8cc\	.	.	.	.
4D/	6	4D/	8b-/	8dd\	.	.	.	.
.	.	.	8b-/J	8cc\J	.	.	.	.
4E-X\	6 5	4E-X\	4.b-/	16cc\LL	.	.	.	.
.	.	.	.	16b-\	.	.	.	.
.	.	.	.	16cc\	.	.	.	.
.	.	.	.	16dd\JJ	.	.	.	.
!	!	!LO:TX:t=P:problem: kreska pseudotaktowa	!	!	!	!	!	!
4F\	4:3	4F\	.	8cc\L	.	.	.	.
!	!	!	!	!LO:TX:t=P:problem: kreska pseudotaktowa	!	!	!	!
.	.	.	8a/	8cc\J	.	.	.	.
!	!	!	!LO:LB:g=original	!	!	!	!	!
=22-	=22-	=22-	=22-	=22-	=22-	=22-	=22-	=22-
!	!	!LO:TX:a:t=voci	!	!	!	!	!	!
4BB-/	.	4BB-/	4b-/	4dd\	8.d/	quo-	8.f/	quo-
.	.	.	.	.	16d/	-ni-	16f/	-ni-
4AA/	.	4AA/	4r	4rdd	8e/	-am	8g/	-am
.	.	.	.	.	8f/	i-	8a\	i-
4GG/	.	4GG/	2r	2rdd	8g\L	-ra-	8b-\L	-ra-
.	.	.	.	.	8g\	.	8b-\	.
!LO:TX:t=P:problem: kreska pseudotaktowa	!	!	!	!	!	!	!	!
4FF/	.	4FF/	.	.	8a\	.	8cc\	.
!	!	!	!	!	!LO:TX:t=P:problem: kreska pseudotaktowa	!	!LO:TX:t=P:problem: kreska pseudotaktowa	!
.	.	.	.	.	8b-\J	.	8dd\J	.
=23-	=23-	=23-	=23-	=23-	=23-	=23-	=23-	=23-
4EE-X/	.	4EE-X/	1r	1rff	4cc\	.	4ee-X\	.
4DD/	6	4DD/	.	.	8b-\	-tus	8ff\	-tus
.	.	.	.	.	8b-\	fu-	8ff\	fu-
4EE-X/	6 5	4EE-X/	.	.	4b-\	-i-	4cc\	-i-
!	!	!LO:TX:t=P:problem: kreska pseudotaktowa	!	!	!	!	!	!
4FF/	4:3	4FF/	.	.	8b-\	-sti	8cc\	-sti
!	!	!	!	!	!LO:TX:t=P:problem: kreska pseudotaktowa	!	!LO:TX:t=P:problem: kreska pseudotaktowa	!
.	.	.	.	.	8a\	fu-	8cc\	fu-
=24-	=24-	=24-	=24-	=24-	=24-	=24-	=24-	=24-
4BB-/	.	4BB-/	4r	4rff	4b-\	-i-	4dd\	-i-
!	!	!LO:TX:a:t=tutti	!	!	!	!	!	!
4D/	6	4D/	4ff\	4bb-\	4b-\	-sti	4dd\	-sti
!LO:TX:b:t=tutti	!	!	!	!	!	!	!	!
4E-X\	6 5	4E-X\	8ee-X\L	4gg\	4b-\	no-	4cc\	no-
.	.	.	8dd\J	.	.	.	.	.
!LO:TX:t=P:problem: kreska pseudotaktowa	!	!	!LO:TX:t=P:problem: kreska pseudotaktowa	!LO:TX:t=P:problem: kreska pseudotaktowa	!	!	!	!
4F\	.	4F\	[4cc\	4aa\	8a\	-bis	8cc\	-bis
!	!	!	!	!	!LO:TX:t=P:problem: kreska pseudotaktowa	!	!LO:TX:t=P:problem: kreska pseudotaktowa	!
.	.	.	.	.	8a\	fu-	8cc\	fu-
=25-	=25-	=25-	=25-	=25-	=25-	=25-	=25-	=25-
4G\	4 3	4G\	4cc\]	8gg\L	4b-\	-i-	4cc\	-i-
.	.	.	.	8aa\J	.	.	.	.
4D/	.	4D/	8b-\L	4bb-\	4b-\	-sti	(8dd\L	-sti
.	.	.	8ff\J	.	.	.	8cc\J)	.
*	*	*	*	*	*custos:b-	*	*	*
!	!	!	!	!	!LO:LB:g=original	!	!	!
4E-X\	6 5	4E-X\	2cc\	4gg\	(4.b-\	no-	2cc\	no-
!	!	!LO:TX:t=P:problem: kreska pseudotaktowa	!	!LO:TX:t=P:problem: kreska pseudotaktowa	!	!	!	!
4F\	5 4:3	4F\	.	4ff\	.	.	.	.
!	!	!	!	!	!LO:TX:t=P:problem: kreska pseudotaktowa	!	!	!
.	.	.	.	.	8a\)	.	.	.
*custos:BB-	*	*	*	*	*	*	*	*
!LO:LB:g=original	!	!	!	!	!	!	!	!
=26-	=26-	=26-	=26-	=26-	=26-	=26-	=26-	=26-
!LO:TX:a:t=viol	!	!LO:TX:a:t=inst.	!	!	!	!	!	!
4BB-/	.	4BB-/	4.b-/	4.ff\	4b-\	-bis	4dd\	-bis
4D/	.	4D/	.	.	4rb	.	4r	.
.	.	.	8b-/	8ff\	.	.	.	.
!	!	!	!LO:TX:t=P:problem: kreska pseudotaktowa	!	!	!	!	!
4E-X\	.	4E-X\	2b-/	8gg\L	2r	.	2rdd	.
.	.	.	.	8gg\	.	.	.	.
4F\	.	4F\	.	8aa\	.	.	.	.
!	!	!	!	!LO:TX:t=P:problem: kreska pseudotaktowa	!	!	!	!
.	.	.	.	8aa\J	.	.	.	.
!	!	!	!	!	!	!	!LO:LB:g=original	!
=27-	=27-	=27-	=27-	=27-	=27-	=27-	=27-	=27-
!	!	!	!	!	!	!	!LO:TX:a:t=8	!
4G\	.	4G\	2b-/	4.bb-\	1r	.	00r	.
4D/	.	4D/	.	.	.	.	.	.
.	.	.	.	8b-/	.	.	.	.
4E-X\	6 5	4E-X\	4.b-/	8cc\L	.	.	.	.
.	.	.	.	8cc\	.	.	.	.
!LO:TX:t=P:problem: kreska pseudotaktowa	!	!LO:TX:t=P:problem: kreska pseudotaktowa	!	!	!	!	!	!
4F\	5 4:3	4F\	.	8cc\	.	.	.	.
!	!	!	!	!LO:TX:t=P:problem: kreska pseudotaktowa	!	!	!	!
.	.	.	8a/	8cc\J	.	.	.	.
=28-	=28-	=28-	=28-	=28-	=28-	=28-	=28-	=28-
!	!	!LO:TX:a:t=C. 2.do	!	!	!	!	!	!
4B-\	.	4B-\	4b-/	4dd\	4rb	.	.	.
!LO:TX:b:t=sedadversus	!	!	!	!	!	!	!	!
!LO:TX:a:t=solo	!	!	!	!	!	!	!	!
4BB-/	.	4BB-/	4r	4rdd	8dd\	sed	.	.
.	.	.	.	.	8dd\	a-	.	.
4C/	-	4C/	2r	2rdd	4cc\	-dver-	.	.
4D/	6 5	4D/	.	.	(8b-\L	-sus	.	.
!	!	!	!	!	!LO:TX:t=P:problem: kreska pseudotaktowa	!	!	!
.	.	.	.	.	8a\J)	.	.	.
=29-	=29-	=29-	=29-	=29-	=29-	=29-	=29-	=29-
!	!	!	!	!LO:TX:a:t=8	!	!	!	!
4E-X\	.	4E-X\	00r	00r	4g/	es	.	.
4C/	6 5	4C/	.	.	8a\	fu-	.	.
.	.	.	.	.	8g/	-ror	.	.
!	!	!	!	!	!LO:TX:t=P:problem: kreska pseudotaktowa	!	!	!
4D/	#	4D/	.	.	2f#X/	tu-	.	.
!LO:TX:t=P:problem: kreska pseudotaktowa	!	!	!	!	!	!	!	!
4C/	.	4C/	.	.	.	.	.	.
!	!	!LO:LB:g=original	!	!	!	!	!	!
=30-	=30-	=30-	=30-	=30-	=30-	=30-	=30-	=30-
4BB-/	.	4BB-/	.	.	2g/	-us	.	.
4GG/	.	4GG/	.	.	.	.	.	.
4FF#X/	.	4FF#X/	.	.	4r	.	.	.
!	!	!LO:TX:t=P:problem: kreska pseudotaktowa	!	!	!LO:TX:t=P:problem: kreska pseudotaktowa	!	!	!
4F#X\	.	4F#X\	.	.	4a\	et	.	.
=31-	=31-	=31-	=31-	=31-	=31-	=31-	=31-	=31-
4G\	.	4G\	.	.	4b-\	con-	00r	.
4D/	#	4D/	.	.	4f#X/	-so-	.	.
4E-X\	.	4E-X\	.	.	4g/	-la-	.	.
!LO:N:acc=#	!	!LO:N:acc=#	!	!	!	!	!	!
!LO:TX:t=P:problem: kreska pseudotaktowa	!	!	!	!	!	!	!	!
4BBn/	6	4BBn/	.	.	8d/	-tus	.	.
!	!	!	!	!	!LO:TX:t=P:problem: kreska pseudotaktowa	!	!	!
.	.	.	.	.	8dd\	et	.	.
=32-	=32-	=32-	=32-	=32-	=32-	=32-	=32-	=32-
4C/	-	4C/	.	.	4ee-X\	con-	.	.
!	!	!	!	!	!LO:N:acc=#	!	!	!
4GG/	#	4GG/	.	.	4bn\	-so-	.	.
4AA/	.	4AA/	.	.	(4.cc\	-la-	.	.
!	!	!LO:TX:t=P:problem: kreska pseudotaktowa	!	!	!	!	!	!
4FF#X/	5-r	4FF#X/	.	.	.	.	.	.
!	!	!	!	!	!LO:TX:t=P:problem: kreska pseudotaktowa	!	!	!
.	.	.	.	.	8b\)	.	.	.
=33-	=33-	=33-	=33-	=33-	=33-	=33-	=33-	=33-
4GG/	.	4GG/	00r	00r	4b-y\	-tus	.	.
*	*	*	*	*	*custos:b-	*	*	*
!	!	!	!	!	!LO:LB:g=original	!	!	!
4BB-y/	.	4BB-y/	.	.	8rb	.	.	.
.	.	.	.	.	8b-\	et	.	.
4C/	5-r	4C/	.	.	4a-X\	con-	.	.
!LO:TX:t=P:problem: kreska pseudotaktowa	!	!	!	!	!LO:TX:t=P:problem: kreska pseudotaktowa	!	!	!
4D/	#	4D/	.	.	4f#X/	-so-	.	.
=34-	=34-	=34-	=34-	=34-	=34-	=34-	=34-	=34-
4E-X\	.	4E-X\	.	.	2g/	-la-	.	.
4BB-/	6	4BB-/	.	.	.	.	.	.
4C/	-	4C/	.	.	4.g/	-tus	.	.
!	!	!LO:TX:t=P:problem: kreska pseudotaktowa	!	!	!	!	!	!
4D/	#	4D/	.	.	.	.	.	.
!	!	!	!	!	!LO:TX:t=P:problem: kreska pseudotaktowa	!	!	!
.	.	.	.	.	8f#X/	es	.	.
*custos:G	*	*	*	*	*	*	*	*
!LO:LB:g=original	!	!	!	!	!	!	!	!
=35-	=35-	=35-	=35-	=35-	=35-	=35-	=35-	=35-
!	!	!LO:TX:a:t=2 voci	!	!	!	!	!	!
4G\	#	4G\	.	.	4g/	nos	4rdd	.
4GG/	6-r	4GG/	.	.	4g/	et	4ee-X\	et
4AA/	6 5-r	4AA/	.	.	4.fny/	con-	4ee-\	con-
!LO:N:acc=#	!	!LO:N:acc=#	!	!	!	!	!	!
!	!	!	!	!	!	!	!LO:TX:t=P:problem: kreska pseudotaktowa	!
4BBn/	5-r	4BBn/	.	.	.	.	4dd\	-so-
!	!	!	!	!	!LO:TX:t=P:problem: kreska pseudotaktowa	!	!	!
.	.	.	.	.	8f/	-so-	.	.
=36-	=36-	=36-	=36-	=36-	=36-	=36-	=36-	=36-
4C/	9:8 -	4C/	.	.	2e-X/	-la-	(8dd\L	-la-
.	.	.	.	.	.	.	8cc\J)	.
!	!	!LO:TX:t=P:problem: b above	!	!	!	!	!	!
4EE-X/	6	4EE-X/	.	.	.	.	2cc\	-tus
4FFny/	6 5	4FFny/	.	.	4.d/	-tus	.	.
!	!	!	!	!	!	!	!LO:TX:t=P:problem: kreska pseudotaktowa	!
!LO:TX:t=P:problem: kreska pseudotaktowa	!	!LO:TX:t=P:problem: kreska pseudotaktowa	!	!	!	!	!LO:N:acc=#	!
4GG/	5 4#r	4GG/	.	.	.	.	4bn\	es
!	!	!	!	!	!LO:TX:t=P:problem: kreska pseudotaktowa	!	!	!
.	.	.	.	.	8d/	es	.	.
=37-	=37-	=37-	=37-	=37-	=37-	=37-	=37-	=37-
!LO:TX:a:t=inst	!	!LO:TX:a:t=inst	!	!	!	!	!	!
4CC/	.	4CC/	4r	4r	4c/	nos	4cc\	nos
4C/	6	4C/	2a/	4cc\	4rc	.	4r	.
4D/	6 5	4D/	.	4.b-/	2rd	.	2rb	.
4Eny\	5-r	4Eny\	4g/	.	.	.	.	.
.	.	.	.	8b-/	.	.	.	.
*	*	*	*	*custos:a	*	*	*	*
!	!	!	!	!LO:LB:g=original	!	!	!	!
=38-	=38-	=38-	=38-	=38-	=38-	=38-	=38-	=38-
4Fny\	.	4Fny\	4.f/	4a/	0r	.	0r	.
4AA/	6	4AA/	.	8r	.	.	.	.
.	.	.	8ff\	8aa\	.	.	.	.
!LO:N:acc=#	!	!LO:N:acc=#	!	!	!	!	!	!
4BBn/	5 5-r	4BBn/	4ff\	4.gg\	.	.	.	.
!LO:TX:t=P:problem: kreska pseudotaktowa	!	!LO:TX:t=P:problem: kreska pseudotaktowa	!LO:TX:t=P:problem: kreska pseudotaktowa	!	!	!	!	!
4C#X/	5-r	4C#X/	4eeny\	.	.	.	.	.
!	!	!	!	!LO:TX:t=P:problem: kreska pseudotaktowa	!	!	!	!
.	.	.	.	8gg\	.	.	.	.
=39-	=39-	=39-	=39-	=39-	=39-	=39-	=39-	=39-
4D/	9:8	4D/	4ee\	2ff\	.	.	.	.
4FF/	6	4FF/	4dd\	.	.	.	.	.
4GG/	6 5	4GG/	4.dd\	4.eeny\	.	.	.	.
!LO:TX:t=P:problem: kreska pseudotaktowa	!	!	!	!	!	!	!	!
4AA/	5 4#r	4AA/	.	.	.	.	.	.
.	.	.	8cc#Xi\	8ee\	.	.	.	.
*	*	*custos:DD	*	*	*	*	*	*
!	!	!LO:LB:g=original	!	!	!	!	!	!
=40-	=40-	=40-	=40-	=40-	=40-	=40-	=40-	=40-
4DD/	.	4DD/	2dd\	4.ff\	4rb	.	4rb	.
!LO:TX:b:t=tutti	!	!LO:TX:b:t=tutti	!	!	!	!	!	!
4D/	6	4D/	.	.	2b-\	et	4dd\	et
.	.	.	.	8ff\	.	.	.	.
4E\	6 5-r	4E\	4g/	8gg\L	.	.	4.cc\	con-
.	.	.	.	8gg\	.	.	.	.
*	*	*	*	*	*	*	*	*
!LO:TX:t=P:problem: kreska pseudotaktowa	!	!	!	!	!	!	!	!
4F#X\	5-r	4F#X\	4r	8aa\	8any\	con-	.	.
!	!	!	!	!LO:TX:t=P:problem: kreska pseudotaktowa	!LO:TX:t=P:problem: kreska pseudotaktowa	!	!LO:TX:t=P:problem: kreska pseudotaktowa	!
.	.	.	.	8aa\J	8a\	-so-	8cc\	-so-
*	*	*	*custos:b-	*	*	*	*	*
!	!	!	!LO:LB:g=original	!	!	!	!	!
=41-	=41-	=41-	=41-	=41-	=41-	=41-	=41-	=41-
4G\	- 9:8	4G\	4r	4.dd\	4a\	-la-	2b-\	-la-
4BB-/	6	4BB-y/	4b-/	.	2g/	tus	.	.
.	.	.	.	8dd\	.	.	.	.
4Cny/	6 5	4Cny/	8g/L	8ee\L	.	.	4a\	-tus
.	.	.	8a/	8ee\	.	.	.	.
!LO:TX:t=P:problem: kreska pseudotaktowa	!	!LO:TX:t=P:problem: kreska pseudotaktowa	!	!	!	!	!	!
4D/	#	4D/	8a/	8ff#Xi\	8f#X/	con-	8a\	con-
!	!	!	!LO:TX:t=P:problem: kreska pseudotaktowa	!LO:TX:t=P:problem: kreska pseudotaktowa	!LO:TX:t=P:problem: kreska pseudotaktowa	!	!	!
.	.	.	8dd/J	8ff#\J	8f#/	-so-	8b-\	-so-
=42-	=42-	=42-	=42-	=42-	=42-	=42-	=42-	=42-
4E-X\	6	4E-X\	4ccny\	8gg\L	4g/	-la-	4cc\	-la-
.	.	.	.	8aa\J	.	.	.	.
4BB-/	6	4BB-/	4b-/	4bb-\	2g/	-tus	4dd\	-tus
4C/	- 6 5	4C/	4ee-X\	4.aa\	.	.	2a\	es
!	!	!	!	!	!LO:TX:t=P:problem: kreska pseudotaktowa	!	!	!
4D/	#	4D/	4dd\	.	4f#X/	es	.	.
!	!	!	!	!LO:TX:t=P:problem: kreska pseudotaktowa	!	!	!	!
.	.	.	.	8aa\	.	.	.	.
*custos:GG	*	*	*	*	*	*	*	*
!LO:LB:g=original	!	!	!	!	!	!	!	!
=43-	=43-	=43-	=43-	=43-	=43-	=43-	=43-	=43-
!	!	!LO:TX:a:t=inst.	!	!	!	!	!LO:N:acc=#	!
4GG/	#	4GG/	8dd\L	4gg\	4g/	nos	4bn\	nos
!	!	!	!LO:N:acc=#	!	!	!	!	!
.	.	.	8bni\	.	.	.	.	.
4AA/	.	4AA/	8cc\	4rff	4r	.	4rb	.
.	.	.	8cc\J	.	.	.	.	.
4BB-/	.	4BB-/	8dd\L	8rff	2r	.	2rb	.
.	.	.	8dd\	8ffny\L	.	.	.	.
4GG/	6|	4GG/	8eeny\	8gg\	.	.	.	.
!	!	!	!LO:TX:t=P:problem: kreska pseudotaktowa	!LO:TX:t=P:problem: kreska pseudotaktowa	!	!	!	!
.	.	.	8ee\J	8gg\J	.	.	.	.
=44-	=44-	=44-	=44-	=44-	=44-	=44-	=44-	=44-
!	!	!	!LO:TX:t=P:problem: mixed beam	!	!LO:TX:a:t=59.	!	!	!
4FF/	.	4FF/	8ff\L	8aa\L	1r	.	00r	.
.	.	.	8a/	8cc\	.	.	.	.
!	!	!	!LO:TX:t=P:problem: # below	!	!	!	!	!
!	!	!	!LO:N:acc=#	!	!	!	!	!
4DD/	6|	4DD/	8bn/	8dd\	.	.	.	.
.	.	.	8b/J	8dd\J	.	.	.	.
4CC/	5 6	4CC/	4cc\	4ee\	.	.	.	.
!LO:TX:t=P:problem: kreska pseudotaktowa	!	!	!	!	!	!	!	!
4C/	6	4C/	2a/	4cc\	.	.	.	.
=45-	=45-	=45-	=45-	=45-	=45-	=45-	=45-	=45-
4D/	6 5	4D/	.	4.b-/	00re	.	.	.
4Eny\	5-r	4Eny\	2g/	.	.	.	.	.
.	.	.	.	8b-/	.	.	.	.
4Fny\	7	4Fny\	.	4.a/	.	.	.	.
!	!	!LO:TX:t=P:problem: kreska pseudotaktowa	!LO:TX:t=P:problem: kreska pseudotaktowa	!	!	!	!	!
4AA/	6	4AA/	4f/	.	.	.	.	.
.	.	.	.	8a/	.	.	.	.
!	!	!	!	!LO:LB:g=original	!	!	!	!
=46-	=46-	=46-	=46-	=46-	=46-	=46-	=46-	=46-
!LO:N:acc=#	!	!LO:N:acc=#	!	!	!	!	!	!
4BBn/	6 5-r	4BBn/	4f/	4.g/	.	.	.	.
!	!	!LO:TX:t=P:problem: # below	!	!	!	!	!	!
4C#X/	.	4C#X/	2e/	.	.	.	.	.
.	.	.	.	8g/	.	.	.	.
4D/	9	4D/	.	2f/	.	.	.	.
!LO:TX:t=P:problem: kreska pseudotaktowa	!	!	!	!	!	!	!	!
4DD/	.	4DD/	4d/	.	.	.	.	.
=47-	=47-	=47-	=47-	=47-	=47-	=47-	=47-	=47-
4GG/	6 5	4GG/	4d/	4.e/	.	.	.	.
!	!	!	!LO:TX:t=P:problem: # below	!	!	!	!	!
4AA/	4#r	4AA/	4c#X/	.	.	.	.	.
.	.	.	.	8e/	.	.	.	.
4D/	.	4D/	8d/L	4d/	.	.	.	.
.	.	.	8f/	.	.	.	.	.
!	!	!LO:TX:t=P:problem: kreska pseudotaktowa	!	!LO:TX:t=P:problem: kreska pseudotaktowa	!	!	!	!
4E\	.	4E\	8g/	4re	.	.	.	.
!	!	!	!LO:TX:t=P:problem: kreska pseudotaktowa	!	!	!	!	!
.	.	.	8g/J	.	.	.	.	.
=48-	=48-	=48-	=48-	=48-	=48-	=48-	=48-	=48-
4F\	.	4F\	8a/L	8rcc	.	.	00r	.
.	.	.	8a/	8cc\L	.	.	.	.
!	!	!	!LO:N:acc=#	!	!	!	!	!
!	!	!	!LO:TX:t=P:problem: # below	!	!	!	!	!
4D/	6|	4D/	8bn/	8dd\	.	.	.	.
.	.	.	8b/J	8dd\J	.	.	.	.
4Cny/	.	4Cny/	8cc\L	8ee\L	.	.	.	.
.	.	.	8cc\	8ee\	.	.	.	.
!LO:TX:t=P:problem: kreska pseudotaktowa	!	!	!	!	!	!	!	!
4AA/	6| 4:3	4AA/	8dd\	8ff#Xi\	.	.	.	.
!	!	!	!	!LO:TX:t=P:problem: kreska pseudotaktowa	!	!	!	!
.	.	.	8cc\J	8ff#\J	.	.	.	.
*	*	*	*custos:b	*	*	*	*	*
!	!	!	!LO:LB:g=original	!	!	!	!	!
=49-	=49-	=49-	=49-	=49-	=49-	=49-	=49-	=49-
!	!	!	!LO:N:acc=#	!	!	!	!	!
4GG/	#	4GG/	4bn/	4.gg\	00re	.	.	.
4G\	6|	4G\	2ee\	.	.	.	.	.
.	.	.	.	8gg\	.	.	.	.
4A\	6 5	4A\	.	4.ffny\	.	.	.	.
!LO:N:acc=#	!	!LO:N:acc=#	!	!	!	!	!	!
4Bn\	5-r	4Bn\	2dd\	.	.	.	.	.
.	.	.	.	8ff\	.	.	.	.
*	*	*custos:c	*	*	*	*	*	*
!	!	!LO:LB:g=original	!	!	!	!	!	!
=50-	=50-	=50-	=50-	=50-	=50-	=50-	=50-	=50-
4c\	10 9	4c\	.	4.ee\	.	.	.	.
4E\	6	4E\	2cc\	.	.	.	.	.
.	.	.	.	8ee\	.	.	.	.
!	!	!	!	!LO:TX:t=P:problem: kreska pseudotaktowa	!	!	!	!
4F\	6 5	4F\	.	2dd\	.	.	.	.
!	!	!	!LO:TX:t=P:problem: kreska pseudotaktowa	!	!	!	!	!
!LO:TX:t=P:problem: kreska pseudotaktowa	!	!	!LO:N:acc=#	!	!	!	!	!
4G\	#	4G\	4bn/	.	.	.	.	.
=51-	=51-	=51-	=51-	=51-	=51-	=51-	=51-	=51-
4c\	.	4c\	4cc\	4ee\	.	.	.	.
4C/	.	4C/	8rcc	8r	.	.	.	.
.	.	.	8ee\	8gg\	.	.	.	.
4AA/	6 5	4AA/	4ee\	4.ff\	.	.	.	.
!	!	!LO:TX:t=P:problem: # below	!	!	!	!	!	!
!LO:N:acc=#	!	!LO:N:acc=#	!	!	!	!	!	!
4BBn/	.	4BBn/	4dd\	.	.	.	.	.
!	!	!	!	!LO:TX:t=P:problem: kreska pseudotaktowa	!	!	!	!
.	.	.	.	8ff\	.	.	.	.
!LO:LB:g=original	!	!	!	!	!	!	!	!
=52-	=52-	=52-	=52-	=52-	=52-	=52-	=52-	=52-
4C/	10 9	4C/	4dd\	4.ee\	.	.	1r	.
4EEny/	6	4EEny/	2cc\	.	.	.	.	.
.	.	.	.	8ee\	.	.	.	.
4FF/	6 5	4FF/	.	2dd\	.	.	.	.
!	!	!LO:TX:t=P:problem: kreska pseudotaktowa	!LO:N:acc=#	!	!	!	!	!
4GG/	#	4GG/	4bn/	.	.	.	.	.
=53-	=53-	=53-	=53-	=53-	=53-	=53-	=53-	=53-
!	!	!LO:TX:a:t=C.I.mo	!	!	!	!	!	!
4CC/	.	4CC/	2cc\	2ee\	00r	.	4rb	.
!LO:TX:a:t=solo	!	!	!	!	!	!	!	!
4C/	.	4C/	.	.	.	.	4cc\	tu
4AA/	.	4AA/	2r	2rdd	.	.	4.cc\	do-
!LO:TX:t=P:problem: kreska pseudotaktowa	!	!	!	!	!	!	!	!
4GG/	.	4GG/	.	.	.	.	.	.
.	.	.	.	.	.	.	8cc\	-mi-
*	*	*	*	*	*	*	*custos:cc	*
!	!	!	!	!	!	!	!LO:LB:g=original	!
=54-	=54-	=54-	=54-	=54-	=54-	=54-	=54-	=54-
!	!	!	!LO:TX:a:t=7.	!	!	!	!	!
4FF/	.	4FF/	00r	00r	.	.	4.cc\	-ne
4EE/	.	4EE/	.	.	.	.	.	.
.	.	.	.	.	.	.	8dd\	mor-
4FF/	6	4FF/	.	.	.	.	4.dd\	-ti-
!	!	!LO:TX:t=P:problem: kreska pseudotaktowa	!	!	!	!	!	!
4GG/	.	4GG/	.	.	.	.	.	.
!	!	!	!	!	!	!	!LO:TX:t=P:problem: kreska pseudotaktowa	!
.	.	.	.	.	.	.	8cc\	-fi-
=55-	=55-	=55-	=55-	=55-	=55-	=55-	=55-	=55-
4C/	.	4C/	.	.	.	.	8cc\	-cas
.	.	.	.	.	.	.	8g\L	et
!LO:N:acc=#	!	!LO:N:acc=#	!	!	!	!	!	!
4BBn/	6	4BBn/	.	.	.	.	8a\	.
.	.	.	.	.	.	.	8b-y\J	.
4AA/	.	4AA/	.	.	.	.	8cc\L	.
.	.	.	.	.	.	.	8cc\	.
!LO:TX:t=P:problem: kreska pseudotaktowa	!	!	!	!	!	!	!	!
4GG/	5:6	4GG/	.	.	.	.	8dd\	.
.	.	.	.	.	.	.	8eeny\J	.
=56-	=56-	=56-	=56-	=56-	=56-	=56-	=56-	=56-
4FF/	.	4FF/	.	.	.	.	4ff\	.
4EE/	6	4EE/	.	.	.	.	8rdd	.
.	.	.	.	.	.	.	8gg\	vi-
4FF/	6	4FF/	.	.	.	.	4.dd\	-vi-
!	!	!LO:TX:t=P:problem: kreska pseudotaktowa	!	!	!	!	!	!
4GG/	.	4GG/	.	.	.	.	.	.
!	!	!	!	!	!	!	!LO:TX:t=P:problem: kreska pseudotaktowa	!
.	.	.	.	.	.	.	8cc\	-fi-
=57-	=57-	=57-	=57-	=57-	=57-	=57-	=57-	=57-
4C/	.	4C/	.	.	00r	.	4cc\	-cas
4AA/	6	4AA/	.	.	.	.	8rb	.
.	.	.	.	.	.	.	16ff\LL	de-
.	.	.	.	.	.	.	16ee\JJ	.
4BB-y/	.	4BB-/	.	.	.	.	4dd\	-du-
!LO:TX:t=P:problem: kreska pseudotaktowa	!	!	!	!	!	!	!	!
4C/	6	4C/	.	.	.	.	8cc\	-cis
!	!	!	!	!	!	!	!LO:TX:t=P:problem: kreska pseudotaktowa	!
.	.	.	.	.	.	.	8cc\	ad
=58-	=58-	=58-	=58-	=58-	=58-	=58-	=58-	=58-
4D/	6	4D/	0r	0r	.	.	4.b-\	in-
4E\	5-r	4E\	.	.	.	.	.	.
.	.	.	.	.	.	.	8a\	-fe-
4F\	.	4F\	.	.	.	.	8a\	-ros
.	.	.	.	.	.	.	8cc\L	et
!	!	!LO:TX:t=P:problem: kreska pseudotaktowa	!	!	!	!	!	!
4E\	.	4E\	.	.	.	.	8dd\	.
!	!	!	!	!	!	!	!LO:TX:t=P:problem: kreska pseudotaktowa	!
.	.	.	.	.	.	.	8ee\J	.
=59-	=59-	=59-	=59-	=59-	=59-	=59-	=59-	=59-
!	!	!	!	!	!	!	!LO:TX:t=P:problem:mixed beam	!
4D/	.	4D/	.	.	.	.	8ff\L	.
.	.	.	.	.	.	.	8f/	.
4C/	.	4C/	.	.	.	.	8g/	.
.	.	.	.	.	.	.	8a/J	.
4BB-/	.	4BB-/	.	.	.	.	8b-\	re-
.	.	.	.	.	.	.	8a\	-du-
!LO:TX:t=P:problem: kreska pseudotaktowa	!	!	!	!	!	!	!	!
4AA/	6	4AA/	.	.	.	.	8cc\L	.
.	.	.	.	.	.	.	16b-\L	.
.	.	.	.	.	.	.	16a\JJ	.
*	*	*custos:BB-	*	*	*	*	*	*
!	!	!LO:LB:g=original	!	!	!	!	!LO:LB:g=original	!
=60-	=60-	=60-	=60-	=60-	=60-	=60-	=60-	=60-
4BB-/	6 5	4BB-/	1r	2r	.	.	16g/LL	.
.	.	.	.	.	.	.	16f/	.
.	.	.	.	.	.	.	16g/	.
.	.	.	.	.	.	.	16a/JJ	.
4C/	.	4C/	.	.	.	.	4g/	.
!	!	!LO:TX:a:t=inst.	!	!	!	!	!	!
4FF/	.	4FF/	.	8rff	.	.	4f/	-cis
.	.	.	.	8ff\L	.	.	.	.
!LO:TX:b:t=instrom	!	!	!	!	!	!	!	!
4GG/	6:5	4GG/	.	8ee\	.	.	4re	.
!	!	!	!	!LO:TX:t=P:problem: kreska pseudotaktowa	!	!	!	!
.	.	.	.	8dd\J	.	.	.	.
*custos:AA	*	*	*	*	*	*	*	*
!LO:LB:g=original	!	!	!	!	!	!	!	!
=61-	=61-	=61-	=61-	=61-	=61-	=61-	=61-	=61-
4AA/	.	4AA/	8r	4cc\	00rb	.	00r	.
.	.	.	8a/L	.	.	.	.	.
!LO:N:acc=#	!	!LO:N:acc=#	!	!	!	!	!	!
4BBn/	6	4BBn/	8g/	4dd\	.	.	.	.
.	.	.	8f/J	.	.	.	.	.
*	*	*	*	*custos:ee	*	*	*	*
!	!	!	!	!LO:LB:g=original	!	!	!	!
4C/	.	4C/	4e/	8ee\L	.	.	.	.
.	.	.	.	8cc\	.	.	.	.
!	!	!LO:TX:t=P:problem: kreska pseudotaktowa	!	!	!	!	!	!
4D/	6:5	4D/	4f/	8b-\	.	.	.	.
!	!	!	!	!LO:TX:t=P:problem: kreska pseudotaktowa	!	!	!	!
.	.	.	.	8a\J	.	.	.	.
=62-	=62-	=62-	=62-	=62-	=62-	=62-	=62-	=62-
!	!	!	!LO:TX:t=P:problem:mixed beam	!	!	!	!	!
4E\	.	4E\	8g/L	4g/	.	.	.	.
.	.	.	8gg\	.	.	.	.	.
4F\	.	4F\	8ff\	4a/	.	.	.	.
.	.	.	8ee\J	.	.	.	.	.
!	!	!	!	!LO:TX:t=P:problem: # below	!	!	!	!
!	!	!	!	!LO:N:acc=#	!	!	!	!
4G\	#	4G\	4.dd\	4bn/	.	.	.	.
!LO:TX:t=P:problem: kreska pseudotaktowa	!	!	!	!	!	!	!	!
4A\	4 3	4A\	.	4cc\	.	.	.	.
!	!	!	!LO:TX:t=P:problem: kreska pseudotaktowa	!	!	!	!	!
.	.	.	8dd\	.	.	.	.	.
=63-	=63-	=63-	=63-	=63-	=63-	=63-	=63-	=63-
4E\	6	4E\	8ee\L	4.cc\	.	.	.	.
.	.	.	8dd\J	.	.	.	.	.
4G\	4:3	4G\	4dd\	.	.	.	.	.
!	!	!	!	!LO:N:acc=#	!	!	!	!
!	!	!	!	!LO:TX:t=P:problem: # below	!	!	!	!
.	.	.	.	8bn/	.	.	.	.
4C/	.	4C/	8ee\L	4cc\	.	.	.	.
.	.	.	8cc\	.	.	.	.	.
!	!	!LO:TX:t=P:problem: kreska pseudotaktowa	!LO:N:acc=#	!LO:TX:t=P:problem: kreska pseudotaktowa	!	!	!	!
4D/	6|:5	4D/	8bni\	4r	.	.	.	.
!	!	!	!LO:TX:t=P:problem: kreska pseudotaktowa	!	!	!	!	!
.	.	.	8a\J	.	.	.	.	.
=64-	=64-	=64-	=64-	=64-	=64-	=64-	=64-	=64-
4E\	.	4E\	4g/	8rcc	.	.	.	.
.	.	.	.	8gg\L	.	.	.	.
4F\	.	4F\	4a/	8ff\	.	.	.	.
.	.	.	.	8ee\J	.	.	.	.
*	*	*	*custos:b	*	*	*	*	*
!	!	!	!LO:LB:g=original	!	!	!	!	!
4G\	#	4G\	8r	2dd\	.	.	.	.
!	!	!	!LO:N:acc=#	!	!	!	!	!
.	.	.	8bn/L	.	.	.	.	.
!LO:TX:t=P:problem: kreska pseudotaktowa	!	!LO:TX:t=P:problem: # belove	!	!	!	!	!	!
!LO:N:acc=#	!	!LO:N:acc=#	!	!	!	!	!	!
4BBn/	6	4BBn/	8a/	.	.	.	.	.
!	!	!	!LO:TX:t=P:problem: kreska pseudotaktowa	!	!	!	!	!
.	.	.	8g/J	.	.	.	.	.
=65-	=65-	=65-	=65-	=65-	=65-	=65-	=65-	=65-
4D/	#	4D/	2f#X/	8r	00rb	.	0r	.
.	.	.	.	8a/L	.	.	.	.
!	!	!	!	!LO:N:acc=#	!	!	!	!
!	!	!	!	!LO:TX:t=P:problem: # below	!	!	!	!
4C/	.	4C/	.	8bn/	.	.	.	.
.	.	.	.	8cc/J	.	.	.	.
!LO:N:acc=#	!	!LO:N:acc=#	!	!	!	!	!	!
4BBn/	.	4BBn/	8r	4dd\	.	.	.	.
.	.	.	8d/L	.	.	.	.	.
!	!	!LO:TX:t=P:problem: kreska pseudotaktowa	!	!LO:TX:t=P:problem: kreska pseudotaktowa	!	!	!	!
4AA/	5:6|	4AA/	8e/	4cc\	.	.	.	.
!	!	!	!LO:TX:t=P:problem: # belove	!	!	!	!	!
.	.	.	8f#X/J	.	.	.	.	.
=66-	=66-	=66-	=66-	=66-	=66-	=66-	=66-	=66-
!	!	!	!	!LO:N:acc=#	!	!	!	!
4GG/	#	4GG/	4.g/	4.bn/	.	.	.	.
!LO:N:acc=#	!	!LO:N:acc=#	!	!	!	!	!	!
4BBn/	6	4BBn/	.	.	.	.	.	.
.	.	.	8g/	8a/	.	.	.	.
4C/	6 5	4C/	4.g/	2a/	.	.	.	.
!LO:TX:t=P:problem: kreska pseudotaktowa	!	!LO:TX:t=P:problem: kreska pseudotaktowa	!	!	!	!	!	!
4D/	#	4D/	.	.	.	.	.	.
!	!	!	!LO:TX:t=P:problem: kreska pseudotaktowa	!	!	!	!	!
!	!	!	!LO:TX:t=P:problem: # above	!	!	!	!	!
.	.	.	8f#X/	.	.	.	.	.
=67-	=67-	=67-	=67-	=67-	=67-	=67-	=67-	=67-
!	!	!	!	!LO:N:acc=#	!	!	!	!
4G\	.	4G\	2g/	2bn/	.	.	4rb	.
!	!	!LO:TX:a:t=C.i.mo	!	!	!	!	!LO:N:acc=#	!
4GG/	#	4GG/	.	.	.	.	8bn\	in-
.	.	.	.	.	.	.	8b\	-du
4AA/	.	4AA/	2r	2r	.	.	4cc\	xi-
!LO:N:acc=#	!	!LO:N:acc=#	!	!	!	!	!LO:TX:t=P:problem: kreska pseudotaktowa	!
4BBn/	6	4BBn/	.	.	.	.	4dd\	-sti
=68-	=68-	=68-	=68-	=68-	=68-	=68-	=68-	=68-
4C/	.	4C/	00r	00r	.	.	4.ee\	nos
4EE/	6	4EE/	.	.	.	.	.	.
.	.	.	.	.	.	.	8dd\	in
4FF/	6 5	4FF/	.	.	.	.	4.dd\	la-
4GG/	4:3	4GG/	.	.	.	.	.	.
!	!	!	!	!	!	!	!LO:TX:t=P:problem: kreska pseudotaktowa	!
.	.	.	.	.	.	.	8cc\	-que-
*custos:C	*	*	*	*	*	*	*	*
!LO:LB:g=original	!	!	!	!	!	!	!	!
=69-	=69-	=69-	=69-	=69-	=69-	=69-	=69-	=69-
4C/	.	4C/	.	.	00r	.	4cc\	-um
4AA/	6	4AA/	.	.	.	.	8rb	.
.	.	.	.	.	.	.	8cc\	im-
4BB-y/	.	4BB-y/	.	.	.	.	8b-y\	-po-
.	.	.	.	.	.	.	8b-\	-su-
4C/	7:6	4C/	.	.	.	.	8b-\	-i-
!	!	!	!	!	!	!	!LO:TX:t=P:problem: kreska pseudotaktowa	!
.	.	.	.	.	.	.	8a\	-sti
*	*	*custos:F	*	*	*	*	*	*
!	!	!LO:LB:g=original	!	!	!	!	!	!
=70-	=70-	=70-	=70-	=70-	=70-	=70-	=70-	=70-
4F\	.	4F\	.	.	.	.	8a\	cin-
.	.	.	.	.	.	.	8a\	-gu-
4FF/	.	4FF/	.	.	.	.	8a\	-lam
.	.	.	.	.	.	.	8ff\	im-
4GG/	6-r	4GG/	.	.	.	.	8ee-X\	-po-
.	.	.	.	.	.	.	8ee-\	-su-
!LO:TX:t=P:problem: kreska pseudotaktowa	!	!	!	!	!	!	!	!
4AA/	5:4	4AA/	.	.	.	.	8ee-\	-i-
.	.	.	.	.	.	.	8dd\	-sti
*	*	*	*	*	*	*	*custos:dd	*
!	!	!	!	!	!	!	!LO:LB:g=original	!
=71-	=71-	=71-	=71-	=71-	=71-	=71-	=71-	=71-
4BB-/	.	4BB-/	.	.	.	.	8.dd\	cin-
.	.	.	.	.	.	.	16dd\	-gu-
4FF#X/	6	4FF#X/	.	.	.	.	4dd\	-lam
4GG/	.	4GG/	.	.	.	.	4b-X\	lum-
!	!	!LO:TX:t=P:problem: kreska pseudotaktowa	!	!	!	!	!LO:TX:t=P:problem: kreska pseudotaktowa	!
4D/	#	4D/	.	.	.	.	4f#X/	-bis
=72-	=72-	=72-	=72-	=72-	=72-	=72-	=72-	=72-
4E-X\	.	4E-X\	1r	1r	.	.	[2g/	no-
4BB-/	6	4BB-/	.	.	.	.	.	.
4C/	-	4C/	.	.	.	.	8g/L]	.
.	.	.	.	.	.	.	16a/L	.
.	.	.	.	.	.	.	16g/JJ	.
!LO:TX:t=P:problem: kreska pseudotaktowa	!	!	!	!	!	!	!	!
4D/	#	4D/	.	.	.	.	8f#X/L	.
!	!	!	!	!	!	!	!LO:TX:t=P:problem: kreska pseudotaktowa	!
.	.	.	.	.	.	.	8g/J	.
=73-	=73-	=73-	=73-	=73-	=73-	=73-	=73-	=73-
!LO:TX:a:t=inst	!	!	!	!	!	!	!	!
4G\	.	4G\	2r	4r	00r	.	2g/	-stris
!	!	!LO:TX:a:t=inst&colon;	!	!	!	!	!	!
4GG/	.	4GG/	.	4b-y/	.	.	.	.
4AA/	6	4AA/	4r	4cc\	.	.	2r	.
!LO:N:acc=#	!	!LO:N:acc=#	!LO:TX:t=P:problem: kreska pseudotaktowa	!LO:TX:t=P:problem: kreska pseudotaktowa	!	!	!	!
!	!	!LO:TX:t=P:problem: kreska pseudotaktowa	!	!	!	!	!	!
4BBn/	6	4BBn/	4d/	4dd\	.	.	.	.
=74-	=74-	=74-	=74-	=74-	=74-	=74-	=74-	=74-
4C/	.	4C/	4e/	4cc\	.	.	0r	.
4D/	6:5 #	4D/	4f#X/	8b-/L	.	.	.	.
.	.	.	.	8a/J	.	.	.	.
!	!	!	!	!LO:TX:t=P:problem:mixed beam	!	!	!	!
4E-X\	.	4E-X\	4g/	8g/L	.	.	.	.
.	.	.	.	8gg\	.	.	.	.
!LO:TX:t=P:problem: kreska pseudotaktowa	!	!	!LO:TX:t=P:problem: kreska pseudotaktowa	!	!	!	!	!
4F\	.	4F\	4a/	8ff\	.	.	.	.
!	!	!	!	!LO:TX:t=P:problem: kreska pseudotaktowa	!	!	!	!
.	.	.	.	8ee-Xi\J	.	.	.	.
=75-	=75-	=75-	=75-	=75-	=75-	=75-	=75-	=75-
4G\	.	4G\	4b-y/	4dd\	.	.	.	.
4BB-/	6	4BB-y/	2b-/	8r	.	.	.	.
.	.	.	.	8dd\	.	.	.	.
*	*	*	*	*custos:ee	*	*	*	*
!	!	!	!	!LO:LB:g=original	!	!	!	!
4C/	7	4C/	.	4eeny\	.	.	.	.
!	!	!	!	!LO:TX:t=P:problem: kreska pseudotaktowa	!	!	!	!
4D/	#	4D/	2a/	4ff#X\	.	.	.	.
=76-	=76-	=76-	=76-	=76-	=76-	=76-	=76-	=76-
4E-X\	5-r #	4E-X\	.	4.gg\	.	.	1r	.
4BB-/	6	4BB-/	8g/L	.	.	.	.	.
.	.	.	8dd/J	8gg\	.	.	.	.
4C/	6 5	4C/	4.a/	4.gg\	.	.	.	.
!	!	!LO:TX:t=P:problem: kreska pseudotaktowa	!	!	!	!	!	!
4D/	4#r	4D/	.	.	.	.	.	.
!	!	!	!	!LO:TX:t=P:problem: kreska pseudotaktowa	!	!	!	!
.	.	.	8a/	8ff#Xi\	.	.	.	.
*custos:G	*	*	*	*	*	*	*	*
!LO:LB:g=original	!	!	!	!	!	!	!	!
=77-	=77-	=77-	=77-	=77-	=77-	=77-	=77-	=77-
!LO:TX:b:t=fecist	!	!LO:TX:a:t=voci	!	!	!	!	!	!
4G\	.	4G\	4b-/	4gg\	00re	.	2b-\	fe-
*	*	*	*	*	*	*	*	*
4F\	.	4F\	4r	4rff	.	.	.	.
4E-X\	.	4E-X\	2r	2rff	.	.	4b-\	-cis-
4D/	6	4D/	.	.	.	.	8b-\	-ti
!	!	!	!	!	!	!	!LO:TX:t=P:problem: kreska pseudotaktowa	!
.	.	.	.	.	.	.	8b-\	ut
=78-	=78-	=78-	=78-	=78-	=78-	=78-	=78-	=78-
!	!	!	!LO:TX:a:t=12.	!LO:TX:a:t=12.	!	!	!	!
4E-X\	6	4E-X\	00r	00r	.	.	8cc\	in-
.	.	.	.	.	.	.	8dd\	-si-
4F\	7	4F\	.	.	.	.	8ee-X\	-de-
.	.	.	.	.	.	.	8ff\	-rent
4B-y\	.	4B-\	.	.	.	.	8.dd\	ho-
.	.	.	.	.	.	.	16cc\	-mi-
!LO:TX:t=P:problem: kreska pseudotaktowa	!	!	!	!	!	!	!	!
4BB-/	.	4BB-/	.	.	.	.	8b-\	-nes
!	!	!	!	!	!	!	!LO:TX:t=P:problem: kreska pseudotaktowa	!
.	.	.	.	.	.	.	8b-\	in
*	*	*custos:AA	*	*	*	*	*	*
!	!	!LO:LB:g=original	!	!	!	!	!	!
=79-	=79-	=79-	=79-	=79-	=79-	=79-	=79-	=79-
4AA/	.	4AA/	.	.	.	.	4cc\	ca-
4BB-/	.	4BB-/	.	.	.	.	8b-\	-pi-
.	.	.	.	.	.	.	8a\	-ta
4C/	.	4C/	.	.	.	.	2g/	no-
4CC/	.	4CC/	.	.	.	.	.	.
*	*	*	*	*	*	*	*custos:f	*
!	!	!	!	!	!	!	!LO:LB:g=original	!
=80-	=80-	=80-	=80-	=80-	=80-	=80-	=80-	=80-
4FFny/	.	4FFny/	.	.	.	.	4fny/	-stra
4F\	.	4F\	.	.	.	.	8r	.
.	.	.	.	.	.	.	8a\	tran-
4G\	.	4G\	.	.	.	.	8b-\	-si-
.	.	.	.	.	.	.	8b-\	-vi-
!LO:TX:t=P:problem: kreska pseudotaktowa	!	!LO:TX:t=P:problem: kreska pseudotaktowa	!	!	!	!	!	!
4A\	.	4A\	.	.	.	.	8cc\	-mus
!	!	!	!	!	!	!	!LO:TX:t=P:problem: kreska pseudotaktowa	!
.	.	.	.	.	.	.	8cc\	per
=81-	=81-	=81-	=81-	=81-	=81-	=81-	=81-	=81-
4B-\	.	4B-\	.	.	00re	.	4dd\	a-
4G\	5:6	4G\	.	.	.	.	8dd\	-quam
.	.	.	.	.	.	.	8eeny	et
4F\	.	4F\	.	.	.	.	4ff\	ig-
4FF/	.	4FF/	.	.	.	.	8ff\	-nem
!	!	!	!	!	!	!	!LO:TX:t=P:problem: kreska pseudotaktowa	!
.	.	.	.	.	.	.	8ff\	et
=82-	=82-	=82-	=82-	=82-	=82-	=82-	=82-	=82-
4GG/	6-r	4GG/	00r	00r	.	.	4.ee-X\	e-
4G\	6-r	4G\	.	.	.	.	.	.
.	.	.	.	.	.	.	8ee-\	-dux-
4C/	-	4C/	.	.	.	.	4.ee-\	-isti
!LO:TX:t=P:problem: kreska pseudotaktowa	!	!LO:TX:t=P:problem: kreska pseudotaktowa	!	!	!	!	!	!
4F\	7	4F\	.	.	.	.	.	.
!	!	!	!	!	!	!	!LO:TX:t=P:problem: kreska pseudotaktowa	!
.	.	.	.	.	.	.	8dd\	nos
=83-	=83-	=83-	=83-	=83-	=83-	=83-	=83-	=83-
4B-\	.	4B-\	.	.	.	.	4dd\	in
4BB-/	.	4BB-/	.	.	.	.	8rdd	.
.	.	.	.	.	.	.	8ff\	re-
4C/	-	4C/	.	.	.	.	4ee-X\	-fri-
4D/	#	4D/	.	.	.	.	(8dd\L	-ge-
!	!	!	!	!	!	!	!LO:TX:t=P:problem: kreska pseudotaktowa	!
.	.	.	.	.	.	.	8cc\J)	.
=84-	=84-	=84-	=84-	=84-	=84-	=84-	=84-	=84-
4E-X\	.	4E-X\	.	.	.	.	8cc\L	.
.	.	.	.	.	.	.	8g\	.
4BB-/	.	4BB-/	.	.	.	.	8cc\	.
.	.	.	.	.	.	.	8dd\J	.
4C/	-	4C/	.	.	.	.	4.b-\	-ri-
!	!	!LO:TX:t=P:problem: kreska pseudotaktowa	!	!	!	!	!	!
4D/	6:5 4#r	4D/	.	.	.	.	.	.
.	.	.	.	.	.	.	8a\	.
*custos:GG	*	*	*	*	*	*	*custos:g	*
!LO:LB:g=original	!	!	!	!	!	!	!LO:LB:g=original	!
=85-	=85-	=85-	=85-	=85-	=85-	=85-	=85-	=85-
4GG/	.	4GG/	.	.	00r	.	4g/	-um
4FF/	6	4FF/	.	.	.	.	8rb	.
.	.	.	.	.	.	.	8dd\	et
4GG/	.	4GG/	.	.	.	.	4.dd\	os-
4AA/	.	4AA/	.	.	.	.	.	.
!	!	!	!	!	!	!	!LO:TX:t=P:problem: kreska pseudotaktowa	!
.	.	.	.	.	.	.	8dd\	-ten-
=86-	=86-	=86-	=86-	=86-	=86-	=86-	=86-	=86-
4BB-/	3 7	4BB-/	00r	00rdd	.	.	4.dd\	-di-
4FF/	3 6|	4FF/	.	.	.	.	.	.
.	.	.	.	.	.	.	8eeny\	-sti
!	!	!	!	!	!	!	!LO:TX:t=P:problem: kreska pseudotaktowa	!
4GG/	6| 3	4GG/	.	.	.	.	2ee\	no-
!LO:TX:t=P:problem: kreska pseudotaktowa	!	!LO:TX:t=P:problem: kreska pseudotaktowa	!	!	!	!	!	!
4AA/	#	4AA/	.	.	.	.	.	.
=87-	=87-	=87-	=87-	=87-	=87-	=87-	=87-	=87-
4DD/	.	4DD/	.	.	.	.	4dd\	-bis
4D/	3 6	4D/	.	.	.	.	2ff\	tri-
4G\	7 3	4G\	.	.	.	.	.	.
!	!	!	!	!	!	!	!LO:TX:t=P:problem: kreska pseudotaktowa	!
4C/	3- 7	4C/	.	.	.	.	[4ee-X\	-bu-
=88-	=88-	=88-	=88-	=88-	=88-	=88-	=88-	=88-
4F\	7 3	4F\	.	.	.	.	4ee-\]	.
4BB-/	3 7	4BB-/	.	.	.	.	2dd\	-la-
4E-X\	7 3	4E-X\	.	.	.	.	.	.
!LO:TX:t=P:problem: kreska pseudotaktowa	!	!LO:TX:t=P:problem: kreska pseudotaktowa	!	!	!	!	!	!
4AA/	3 7	4AA/	.	.	.	.	2cc\	-ti-
*	*	*custos:D	*	*	*	*	*	*
!	!	!LO:LB:g=original	!	!	!	!	!	!
=89-	=89-	=89-	=89-	=89-	=89-	=89-	=89-	=89-
4D/	7 3	4D/	.	.	00r	.	.	.
*	*	*	*	*	*	*	*	*
4GG/	3 7	4GG/	.	.	.	.	2b-\	-o-
4C/	3 3	4C/	.	.	.	.	.	.
!	!	!	!	!	!	!	!LO:TX:t=P:problem: kreska pseudotaktowa	!
4FF/	8	4FF/	.	.	.	.	4a\	-nes
*	*	*	*custos:ee	*	*	*	*	*
!	!	!	!LO:LB:g=original	!	!	!	!	!
=90-	=90-	=90-	=90-	=90-	=90-	=90-	=90-	=90-
4AA/	6	4AA/	2r	2rdd	.	.	4cc\	mul-
4BB-/	.	4BB-/	.	.	.	.	8b-\	-tas
.	.	.	.	.	.	.	8a\	et
!	!	!	!	!	!	!	!LO:TX:t=P:problem: kreska pseudotaktowa	!
4C/	5 4	4C/	4r	4rdd	.	.	2g/	ma-
!LO:TX:b:t=inst	!	!LO:TX:b:t=inst&colon;	!LO:TX:t=P:problem: kreska pseudotaktowa	!	!	!	!	!
!LO:TX:t=P:problem: kreska pseudotaktowa	!	!LO:TX:t=P:problem: kreska pseudotaktowa	!	!	!	!	!	!
4c\	#	4c\	4ee\	4gg\	.	.	.	.
=91-	=91-	=91-	=91-	=91-	=91-	=91-	=91-	=91-
4F\	.	4F\	4ff\	2aa\	.	.	4f/	-las
4B-\	3 7	4B-\	2dd\	.	.	.	4re	.
4Eny\	3 7	4Eny\	.	2gg\	.	.	2rf	.
4A\	3 7	4A\	2cc\	.	.	.	.	.
=92-	=92-	=92-	=92-	=92-	=92-	=92-	=92-	=92-
4D/	7 3	4D/	.	2ffny\	.	.	1rg	.
4G\	7 3	4G\	2b-/	.	.	.	.	.
4C/	-	4C/	.	4.ee-X\	.	.	.	.
!	!	!LO:TX:t=P:problem: kreska pseudotaktowa	!	!	!	!	!	!
4F\	7:6 3	4F\	2a/	.	.	.	.	.
!	!	!	!	!LO:TX:t=P:problem: kreska pseudotaktowa	!	!	!	!
.	.	.	.	8dd\	.	.	.	.
*custos:BB-	*	*	*	*	*	*	*	*
!LO:PB:g=original	!	!	!	!	!	!	!	!
=93-	=93-	=93-	=93-	=93-	=93-	=93-	=93-	=93-
4BB-/	3 7	4BB-/	.	4dd\	00rb	.	2r	.
4B-\	6	4B-\	8g/L	2dd\	.	.	.	.
.	.	.	8fny/J	.	.	.	.	.
4G\	6 5	4G\	4.e/	.	.	.	4r	.
4A\	# 5	4A\	.	4cc#X\	.	.	8a\	et
!	!	!	!LO:TX:t=P:problem: kreska pseudotaktowa	!	!	!	!LO:TX:t=P:problem: kreska pseudotaktowa	!
.	.	.	8a/	.	.	.	8g/	con-
*	*	*	*	*	*	*	*custos:f	*
!	!	!	!	!	!	!	!LO:LB:g=original	!
=94-	=94-	=94-	=94-	=94-	=94-	=94-	=94-	=94-
4d\	6	4d\	2b-/	4dd\	.	.	4f/	-ver-
4D/	6	4D/	.	2ff\	.	.	8f/	-sus
.	.	.	.	.	.	.	8f/	vi-
4G\	7 3	4G\	4g/	.	.	.	4b-\	-vi-
!LO:TX:t=P:problem: kreska pseudotaktowa	!	!LO:TX:t=P:problem: kreska pseudotaktowa	!	!	!	!	!	!
4C/	3 7	4C/	4a/	2ee-X\	.	.	(8a\L	-fi-
!	!	!	!	!	!	!	!LO:TX:t=P:problem: kreska pseudotaktowa	!
.	.	.	.	.	.	.	8g\J)	.
=95-	=95-	=95-	=95-	=95-	=95-	=95-	=95-	=95-
4F\	7 3	4F\	2a/	.	.	.	4a\	-cas-
4BB-/	3 7	4BB-/	.	2dd\	.	.	4dd\	-ti-
4E-X\	7 3	4E-X\	2g/	.	.	.	4g/	-nos
!	!	!	!	!	!	!	!LO:TX:t=P:problem: kreska pseudotaktowa	!
4AA/	3 7	4AA/	.	2ccny\	.	.	4r	.
=96-	=96-	=96-	=96-	=96-	=96-	=96-	=96-	=96-
4D/	7 3	4D/	2f/	.	.	.	2r	.
4GG/	3 7	4GG/	.	2b-/	.	.	.	.
4C/	7 #	4C/	4.e/	.	.	.	4r	.
!LO:TX:t=P:problem: kreska pseudotaktowa	!	!LO:TX:t=P:problem: kreska pseudotaktowa	!	!LO:TX:t=P:problem: kreska pseudotaktowa	!	!	!	!
4FF/	8 5	4FF/	.	4a/	.	.	8r	.
!	!	!	!LO:TX:t=P:problem: kreska pseudotaktowa	!	!	!	!LO:TX:t=P:problem: kreska pseudotaktowa	!
.	.	.	8f/	.	.	.	8cc\	vi-
=97-	=97-	=97-	=97-	=97-	=97-	=97-	=97-	=97-
4AA/	6	4AA/	4f/	4cc\	00rb	.	4cc\	-vi-
4BB-/	.	4BB-/	2f/	4dd\	.	.	(8b-\L	-fi-
.	.	.	.	.	.	.	8a\J)	.
!	!	!	!	!LO:TX:t=P:problem: kreska pseudotaktowa	!	!	!	!
4C/	5 4:3	4C/	.	2cc\	.	.	4.g/	-cas-
4CC/	.	4CC/	4e/	.	.	.	.	.
!	!	!	!	!	!	!	!LO:TX:t=P:problem: kreska pseudotaktowa	!
.	.	.	.	.	.	.	8g/	-ti-
=98-	=98-	=98-	=98-	=98-	=98-	=98-	=98-	=98-
4FF/	.	4FF/	4f/	8cc\L	.	.	4a\	-nos
.	.	.	.	8a\	.	.	.	.
4F\	.	4F\	4r	8ff\	.	.	4r	.
.	.	.	.	8eeny\J	.	.	.	.
*	*	*	*	*custos:dd	*	*	*	*
!	!	!	!	!LO:LB:g=original	!	!	!	!
4BB-/	.	4BB-/	4r	8dd\L	.	.	2r	.
.	.	.	.	8cc\J	.	.	.	.
!LO:TX:t=P:problem: kreska pseudotaktowa	!	!	!	!	!	!	!	!
4D/	6	4D/	8bb-\L	2b-/	.	.	.	.
!	!	!	!LO:TX:t=P:problem: kreska pseudotaktowa	!	!	!	!	!
.	.	.	8aa\J	.	.	.	.	.
*	*	*custos:E-	*	*	*	*	*	*
!	!	!LO:LB:g=original	!	!	!	!	!	!
=99-	=99-	=99-	=99-	=99-	=99-	=99-	=99-	=99-
!	!	!	!	!	!	!	!LO:TX:a:t=23.	!
4E-X\	.	4E-X\	8gg\	.	.	.	00r	.
.	.	.	8r	.	.	.	.	.
4C/	-	4C/	8cc\L	2ee-X\	.	.	.	.
.	.	.	8b-\J	.	.	.	.	.
4F\	7	4F\	4a/	.	.	.	.	.
!	!	!	!LO:TX:t=P:problem: kreska pseudotaktowa	!LO:LB:g=original	!	!	!	!
4G\	.	4G\	[4b-/	4dd\	.	.	.	.
=100-	=100-	=100-	=100-	=100-	=100-	=100-	=100-	=100-
4E-X\	5:4	4E-X\	4b-/]	4.cc\	.	.	.	.
4F\	.	4F\	4a/	.	.	.	.	.
.	.	.	.	8cc\	.	.	.	.
!	!	!	!LO:LB:g=original	!	!	!	!	!
4BB-/	.	4BB-/	4b-/	4dd\	.	.	.	.
!	!	!LO:TX:t=P:problem: kreska pseudotaktowa	!LO:TX:t=P:problem: kreska pseudotaktowa	!	!	!	!	!
4C/	-	4C/	4r	4ee-X\	.	.	.	.
*custos:D	*	*	*	*	*	*	*	*
!LO:LB:g=original	!	!	!	!	!	!	!	!
=101-	=101-	=101-	=101-	=101-	=101-	=101-	=101-	=101-
4D/	.	4D/	4f/	4ff\	0r	.	.	.
4E-X\	.	4E-X\	4g/	8ee-X\L	.	.	.	.
.	.	.	.	8dd\J	.	.	.	.
4F\	.	4F\	4a/	4cc\	.	.	.	.
!	!	!	!LO:N:acc=#	!LO:LB:g=original	!	!	!	!
4D/	6|	4D/	4bn/	4dd\	.	.	.	.
=102-	=102-	=102-	=102-	=102-	=102-	=102-	=102-	=102-
4C/	-	4C/	4.cc\	4ee-X\	.	.	.	.
4D/	3- 7	4D/	.	4ff\	.	.	.	.
.	.	.	8cc\	.	.	.	.	.
4E-X\	6	4E-X\	4.cc\	4gg\	.	.	.	.
!LO:TX:t=P:problem: kreska pseudotaktowa	!	!LO:TX:t=P:problem: kreska pseudotaktowa	!	!	!	!	!	!
4F\	.	4F\	.	8ff\L	.	.	.	.
.	.	.	8cc\	8ee-Xi\J	.	.	.	.
=103-	=103-	=103-	=103-	=103-	=103-	=103-	=103-	=103-
4G\	5 4#r	4G\	4.cc\	4.dd\	2r	.	00r	.
4GG/	.	4GG/	.	.	.	.	.	.
!	!	!	!LO:TX:t=P:problem: # below	!	!	!	!	!
!	!	!	!LO:N:acc=#	!	!	!	!	!
.	.	.	8bn/	8dd\	.	.	.	.
4CC/	.	4CC/	2cc\	2eeny\	4rb	.	.	.
!LO:TX:t=P:problem: kreska pseudotaktowa	!	!LO:TX:a:t=C.2.do	!	!	!LO:TX:t=P:problem: kreska pseudotaktowa	!	!	!
4C/	.	4C/	.	.	4cc\	Ju-	.	.
=104-	=104-	=104-	=104-	=104-	=104-	=104-	=104-	=104-
!	!	!	!LO:TX:a:t=18	!LO:TX:a:t=18	!	!	!	!
4D/	6	4D/	00r	00r	4b-\	-sti-	.	.
4Eny\	5-r	4Eny\	.	.	8b-\	-tia	.	.
.	.	.	.	.	8b-\	tu-	.	.
4F\	.	4F\	.	.	4.a\	-a	.	.
!	!	!LO:TX:t=P:problem: kreska pseudotaktowa	!	!	!	!	!	!
4G\	7	4G\	.	.	.	.	.	.
!	!	!	!	!	!LO:TX:t=P:problem: kreska pseudotaktowa	!	!	!
.	.	.	.	.	8a\	.	.	.
=105-	=105-	=105-	=105-	=105-	=105-	=105-	=105-	=105-
4A\	.	4A\	.	.	2a\	de-	.	.
4B-\	.	4B-\	.	.	.	.	.	.
4c\	.	4c\	.	.	4g/	-us	.	.
!LO:TX:t=P:problem: kreska pseudotaktowa	!	!LO:TX:t=P:problem: kreska pseudotaktowa	!	!	!	!	!	!
4B-\	.	4B-\	.	.	8r	.	.	.
!	!	!	!	!	!LO:TX:t=P:problem: kreska pseudotaktowa	!	!	!
.	.	.	.	.	8g/	in	.	.
=106-	=106-	=106-	=106-	=106-	=106-	=106-	=106-	=106-
4A\	.	4A\	.	.	4cc\	al-	.	.
4G\	.	4G\	.	.	4cc\	-tum	.	.
4F\	.	4F\	.	.	4cc\	us-	.	.
4E\	.	4E\	.	.	8dd\	-que	.	.
!	!	!	!	!	!LO:TX:t=P:problem: kreska pseudotaktowa	!	!	!
.	.	.	.	.	8eeny\	as-	.	.
=107-	=107-	=107-	=107-	=107-	=107-	=107-	=107-	=107-
4D/	.	4D/	.	.	4ff\	-sur-	00rb	.
4C/	.	4C/	.	.	4ff\	-git	.	.
!	!	!LO:N:acc=-	!	!	!	!	!	!
4BB-/	.	4BBn/	.	.	8r	.	.	.
.	.	.	.	.	8fny/L	us-	.	.
!LO:TX:t=P:problem: kreska pseudotaktowa	!	!	!	!	!	!	!	!
4AA/	6	4AA/	.	.	8g/	.	.	.
.	.	.	.	.	8a/J	.	.	.
*	*	*custos:GG	*	*	*custos:b-	*	*	*
!	!	!LO:LB:g=original	!	!	!LO:LB:g=original	!	!	!
=108-	=108-	=108-	=108-	=108-	=108-	=108-	=108-	=108-
4GG/	.	4GG/	00r	00r	4b-\	.	.	.
4FF/	.	4FF/	.	.	8a\	-que	.	.
.	.	.	.	.	8cc\	as-	.	.
4BB-/	6 5	4BB-y/	.	.	16g/LL	-sur-	.	.
.	.	.	.	.	16f/	.	.	.
.	.	.	.	.	16g/	.	.	.
.	.	.	.	.	16a/JJ	.	.	.
!LO:TX:t=P:problem: kreska pseudotaktowa	!	!LO:TX:t=P:problem: kreska pseudotaktowa	!	!	!LO:TX:t=P:problem: kreska pseudotaktowa	!	!	!
4C/	.	4C/	.	.	4g/	.	.	.
=109-	=109-	=109-	=109-	=109-	=109-	=109-	=109-	=109-
4FF/	.	4FF/	.	.	2f/	-git	.	.
4F\	.	4F\	.	.	.	.	.	.
*custos:E	*	*	*	*	*	*	*	*
!LO:LB:g=original	!	!	!	!	!	!	!	!
4E\	6	4E\	.	.	4r	.	.	.
!LO:TX:t=P:problem: kreska pseudotaktowa	!	!	!	!	!	!	!	!
4F\	.	4F\	.	.	8rb	.	.	.
!	!	!	!	!	!LO:TX:t=P:problem: kreska pseudotaktowa	!	!	!
.	.	.	.	.	8cc\	mag-	.	.
=110-	=110-	=110-	=110-	=110-	=110-	=110-	=110-	=110-
4C/	.	4C/	.	.	8cc\	-nas	.	.
.	.	.	.	.	8cc\	res	.	.
4AA/	6	4AA/	.	.	4cc\	fa-	.	.
4FF/	.	4FF/	.	.	8a\	-cis	.	.
.	.	.	.	.	8ff\	mag-	.	.
!	!	!LO:TX:t=P:problem: kreska pseudotaktowa	!	!	!	!	!	!
4AA/	6	4AA/	.	.	8ff\	-nas	.	.
!	!	!	!	!	!LO:TX:t=P:problem: kreska pseudotaktowa	!	!	!
.	.	.	.	.	8ff\	res	.	.
=111-	=111-	=111-	=111-	=111-	=111-	=111-	=111-	=111-
4BB-/	.	4BB-/	.	.	4ff\	fa-	00rb	.
4D/	.	4D/	.	.	4dd\	-cis	.	.
4E\	6	4E\	.	.	4rb	.	.	.
!LO:TX:t=P:problem: kreska pseudotaktowa	!	!	!	!	!	!	!	!
4F#X\	5	4F#X\	.	.	8cc\	quis	.	.
!	!	!	!	!	!LO:TX:t=P:problem: kreska pseudotaktowa	!	!	!
.	.	.	.	.	8dd\	pax	.	.
=112-	=112-	=112-	=112-	=112-	=112-	=112-	=112-	=112-
4G\	.	4G\	00r	00rdd	8b-\	ti-	.	.
.	.	.	.	.	8g/	-bi	.	.
4C/	-	4C/	.	.	8ee-X\	quis	.	.
.	.	.	.	.	8gg\	pax	.	.
4D/	5 4#r	4D/	.	.	2a\	ti-	.	.
!	!	!LO:TX:t=P:problem: kreska pseudotaktowa	!	!	!	!	!	!
4DD/	.	4DD/	.	.	.	.	.	.
*	*	*	*	*	*custos:g	*	*	*
!	!	!	!	!	!LO:LB:g=original	!	!	!
=113-	=113-	=113-	=113-	=113-	=113-	=113-	=113-	=113-
4GG/	.	4GG/	.	.	4g/	-bi	.	.
4AA/	.	4AA/	.	.	4r	.	.	.
!LO:N:acc=#	!	!LO:N:acc=#	!	!	!	!	!	!
4BBn/	.	4BBn/	.	.	4g/	ec-	.	.
!LO:TX:t=P:problem: kreska pseudotaktowa	!	!	!	!	!	!	!	!
4C/	.	4C/	.	.	8g/	-ce	.	.
!	!	!	!	!	!LO:TX:t=P:problem: kreska pseudotaktowa	!	!	!
.	.	.	.	.	8g/	sal-	.	.
=114-	=114-	=114-	=114-	=114-	=114-	=114-	=114-	=114-
4D/	4 3	4D/	.	.	4.g/	-va-	.	.
!LO:N:acc=#	!	!LO:N:acc=#	!	!	!	!	!	!
4BBn/	6 5	4BBn/	.	.	.	.	.	.
.	.	.	.	.	8f/	-tor	.	.
4C/	.	4C/	.	.	8eny/	nos-	.	.
.	.	.	.	.	8c/	-ter	.	.
!	!	!LO:TX:t=P:problem: kreska pseudotaktowa	!	!	!LO:TX:t=P:problem: kreska pseudotaktowa	!	!	!
4D/	.	4D/	.	.	4re	.	.	.
=115-	=115-	=115-	=115-	=115-	=115-	=115-	=115-	=115-
4E\	.	4E\	.	.	4cc\	ec-	00r	.
4C/	.	4C/	.	.	8cc\	-ce	.	.
.	.	.	.	.	8cc\	sal-	.	.
4E\	6	4E\	.	.	4.cc\	-va-	.	.
!LO:TX:t=P:problem: kreska pseudotaktowa	!	!	!	!	!	!	!	!
4EE/	6:5-r	4EE/	.	.	.	.	.	.
!	!	!	!	!	!LO:TX:t=P:problem: kreska pseudotaktowa	!	!	!
.	.	.	.	.	8b-\	-tor	.	.
=116-	=116-	=116-	=116-	=116-	=116-	=116-	=116-	=116-
4FF/	.	4FF/	00r	00rdd	8a\	nos-	.	.
.	.	.	.	.	8f/	-ter	.	.
4AA/	6	4AA/	.	.	8ff\	con-	.	.
.	.	.	.	.	8ee-X\	-fi-	.	.
4BB-y/	.	4BB-y/	.	.	8dd\	-da-	.	.
.	.	.	.	.	8dd\	-mus	.	.
!LO:N:acc=#	!	!LO:N:acc=#	!	!	!	!	!	!
4BBn/	6	4BBn/	.	.	8.g/	con-	.	.
!	!	!	!	!	!LO:TX:t=P:problem: kreska pseudotaktowa	!	!	!
.	.	.	.	.	16f/	-fi-	.	.
*	*	*custos:C	*	*	*	*	*	*
!	!	!LO:PB:g=original	!	!	!	!	!	!
=117-	=117-	=117-	=117-	=117-	=117-	=117-	=117-	=117-
4C/	.	4C/	.	.	8e/	-da-	.	.
.	.	.	.	.	8e/	-mus	.	.
*	*	*	*	*	*custos:a	*	*	*
!	!	!	!	!	!LO:LB:g=original	!	!	!
4C#X/	6	4C#X/	.	.	8a\	non	.	.
.	.	.	.	.	8g/	ex-	.	.
4D/	.	4D/	.	.	4.f/	-pa-	.	.
4GG/	7:6|	4GG/	.	.	.	.	.	.
!	!	!	!	!	!LO:TX:t=P:problem: kreska pseudotaktowa	!	!	!
.	.	.	.	.	8e/	-ves-	.	.
*custos:AA	*	*	*	*	*	*	*	*
!LO:LB:g=original	!	!	!	!	!	!	!	!
=118-	=118-	=118-	=118-	=118-	=118-	=118-	=118-	=118-
4AA/	5 4	4AA/	.	.	16e/LL	-ca-	.	.
.	.	.	.	.	16d/	.	.	.
.	.	.	.	.	16e/	.	.	.
.	.	.	.	.	16f/JJ	.	.	.
4A\	#	4A\	.	.	4e/	.	.	.
4B-\	.	4B-\	.	.	4d/	-mus	.	.
!	!	!LO:TX:t=P:problem: kreska pseudotaktowa	!	!	!	!	!	!
4F#X\	6	4F#X\	.	.	8dd\	qui-	.	.
!	!	!	!	!	!LO:TX:t=P:problem: kreska pseudotaktowa	!	!	!
.	.	.	.	.	8dd\	-a	.	.
=119-	=119-	=119-	=119-	=119-	=119-	=119-	=119-	=119-
4G\	.	4G\	.	.	8dd\	for-	0r	.
.	.	.	.	.	8dd\	-ti-	.	.
4D/	.	4D/	.	.	8dd\	-tu-	.	.
.	.	.	.	.	8dd\	-do	.	.
4BB-y/	.	4BB-y/	.	.	4.dd\	nos-	.	.
!LO:TX:t=P:problem: kreska pseudotaktowa	!	!	!	!	!	!	!	!
4FF#X/	6	4FF#X/	.	.	.	.	.	.
!	!	!	!	!	!LO:TX:t=P:problem: kreska pseudotaktowa	!	!	!
.	.	.	.	.	8cc\	-tra	.	.
=120-	=120-	=120-	=120-	=120-	=120-	=120-	=120-	=120-
4GG/	.	4GG/	0r	0rdd	8.b-\	do-	.	.
.	.	.	.	.	16a\	-mi-	.	.
4G\	.	4G\	.	.	8g/	-nus	.	.
.	.	.	.	.	8dd\	et	.	.
4Cny/	-	4Cny/	.	.	4ee-X\	fa-	.	.
!	!	!LO:TX:t=P:problem: kreska pseudotaktowa	!	!	!	!	!	!
4D/	.	4D/	.	.	8dd\	-ctus	.	.
!	!	!	!	!	!LO:TX:t=P:problem: kreska pseudotaktowa	!	!	!
.	.	.	.	.	8cc\	est	.	.
=121-	=121-	=121-	=121-	=121-	=121-	=121-	=121-	=121-
4E-X\	.	4E-X\	.	.	8b-\	no-	1r	.
.	.	.	.	.	8g/	-bis	.	.
*	*	*	*	*	*custos:cc	*	*	*
!	!	!	!	!	!LO:LB:g=original	!	!	!
4C/	-	4C/	.	.	8cc\	in	.	.
.	.	.	.	.	8dd\	sa-	.	.
4D/	6 5 4#r	4D/	.	.	(4.b-\	-lu-	.	.
!LO:TX:t=P:problem: kreska pseudotaktowa	!	!LO:TX:t=P:problem: kreska pseudotaktowa	!	!	!	!	!	!
4DD/	.	4DD/	.	.	.	.	.	.
!	!	!	!	!	!LO:TX:t=P:problem: kreska pseudotaktowa	!	!	!
.	.	.	.	.	8a\)	.	.	.
=122-	=122-	=122-	=122-	=122-	=122-	=122-	=122-	=122-
!	!	!LO:TX:b:t=celebrate	!	!	!	!	!	!
4GG/	.	4GG/	4r	4rff	4g/	-tem	4rb	.
!LO:TX:a:t=tutti	!	!LO:TX:a:t=tutti	!LO:TX:b:t=Celebrate	!LO:TX:b:t=celebrate	!	!	!	!
4G\	.	4G\	8b-y/L	8gg\L	8b-\	ce-	8dd\	ce-
.	.	.	8b-/J	8gg\J	8b-\	-le-	8dd\	-le-
4F#X\	.	4F#X\	4dd\	4aa\	4a\	-bra-	4dd\	-bra-
!	!	!	!LO:TX:t=P:problem: kreska pseudotaktowa	!	!	!	!LO:TX:t=P:problem: kreska pseudotaktowa	!
4G\	.	4G\	4b-/	4gg\	4b-\	-te	4dd\	-te
=123-	=123-	=123-	=123-	=123-	=123-	=123-	=123-	=123-
4D/	#	4D/	4a/	4aa\	8ff#X\	do-	8dd\	do-
.	.	.	.	.	16ff#\	-mi-	16dd\	-mi-
.	.	.	.	.	16ff#\	-nu(m)	16dd\	-nu(m)
4BB-/	.	4BB-/	8dd\L	8bb-\L	8dd\	ce-	8ff\	ce-
!	!	!	!	!	!	!	!LO:LB:g=original	!
.	.	.	8dd\J	8bb-\J	8dd\	-le-	8ff\	-le-
4AA/	6	4AA/	4.ff\	4.ccc\	4cc\	-bra-	4ff\	-bra-
!LO:TX:t=P:problem: kreska pseudotaktowa	!	!LO:TX:t=P:problem: kreska pseudotaktowa	!	!	!LO:TX:t=P:problem: kreska pseudotaktowa	!	!LO:TX:t=P:problem: kreska pseudotaktowa	!
4BB-/	.	4BB-/	.	.	4dd\	-te	4ff\	-te
!	!	!	!LO:TX:t=P:problem: kreska pseudotaktowa	!LO:TX:t=P:problem: kreska pseudotaktowa	!	!	!	!
.	.	.	8f/	8bb-\	.	.	.	.
=124-	=124-	=124-	=124-	=124-	=124-	=124-	=124-	=124-
4FFny/	.	4FFny/	4a/	4aa\	8cc\	do-	8ff\	do-
.	.	.	.	.	16cc\	-mi-	16ff\	-mi-
.	.	.	.	.	16cc\	-num	16ff\	-num
4Fny\	.	4Fny\	8cc\L	8ff\L	8a\	pro-	8cc\	pro-
.	.	.	8cc\J	8ff\J	8a\	-cla-	8cc\	-cla-
4Eny\	6	4Eny\	4ee\	4gg\	8g/	-ma-	8cc\	-ma-
.	.	.	.	.	8g/	-te	8cc\	-te
4F\	.	4F\	2cc\	4ff\	8a\	no-	8cc\	no-
!	!	!	!	!	!LO:TX:t=P:problem: kreska pseudotaktowa	!	!LO:TX:t=P:problem: kreska pseudotaktowa	!
.	.	.	.	.	8a\	-men	8cc\	-men
*	*	*	*	*custos:gg	*custos:e	*	*	*
!	!	!	!	!LO:LB:g=original	!LO:LB:g=original	!	!	!
=125-	=125-	=125-	=125-	=125-	=125-	=125-	=125-	=125-
4C/	.	4C/	.	4gg\	8e/	e-	8cc\	e-
.	.	.	.	.	8e/	-ius	8cc\	-ius
4AA/	6	4AA/	4ff\	4aa\	8f/	no-	8cc\	no-
.	.	.	.	.	8f/	-men	8cc\	-men
!	!	!	!	!	!	!	!LO:TX:t=P:problem: kreska pseudotaktowa	!
4BB-/	6 5	4BB-/	4dd\	2gg\	(4.f/	e-	2g/	e-
!LO:TX:t=P:problem: kreska pseudotaktowa	!	!	!	!	!	!	!	!
4C/	.	4C/	4cc\	.	.	.	.	.
!	!	!	!	!	!LO:TX:t=P:problem: kreska pseudotaktowa	!	!	!
.	.	.	.	.	8e/)	.	.	.
*	*	*custos:FF	*	*	*	*	*	*
!	!	!LO:LB:g=original	!	!	!	!	!	!
=126-	=126-	=126-	=126-	=126-	=126-	=126-	=126-	=126-
4FF/	.	4FF/	4cc\	4ff\	4f/	-ius	4a\	-ius
4.F\	4 2	4.F\	4r	4rdd	8a\	no-	4r	.
.	.	.	.	.	8a\	-tas	.	.
!	!	!	!	!LO:TX:t=P:problem: kreska pseudotaktowa	!	!	!	!
.	.	.	2r	2rdd	8g/	fa-	4rb	.
8E\	6	8E\	.	.	8g/	-ci-	.	.
4E\	6	4E\	.	.	8g/	-te	8cc\	no-
!	!	!	!	!	!LO:TX:t=P:problem: kreska pseudotaktowa	!	!LO:TX:t=P:problem: kreska pseudotaktowa	!
.	.	.	.	.	8f/	in	8cc\	-tas
*custos:D	*	*	*custos:ff	*	*	*	*	*
!LO:LB:g=original	!	!	!LO:LB:g=original	!	!	!	!	!
=127-	=127-	=127-	=127-	=127-	=127-	=127-	=127-	=127-
4D/	7:6|	4D/	4r	2rff	8f/	po-	8cc\	fa-
!	!	!	!	!	!	!	!LO:TX:t=P:problem: # above	!
!	!	!	!	!	!	!	!LO:N:acc=#	!
.	.	.	.	.	8f/	-pu-	8bn\	-ci-
4DD/	6|	4DD/	8ff\L	.	8f/	-lis	8b\	-te
.	.	.	8ff\J	.	8f/	in	8cc\	in
*	*	*	*	*	*	*	*custos:cc	*
!	!	!	!	!	!	!	!LO:LB:g=original	!
4CC/	6	4CC/	8ee\L	4rff	4.a\	po-	8cc\	po-
.	.	.	8ee\	.	.	.	8cc\	-pu-
!	!	!LO:TX:t=P:problem: kreska pseudotaktowa	!	!	!	!	!	!
4C/	6	4C/	8.ee\	8aa\	.	.	8cc\	-lis
!	!	!	!	!LO:TX:t=P:problem: kreska pseudotaktowa	!LO:TX:t=P:problem: kreska pseudotaktowa	!	!LO:TX:t=P:problem: kreska pseudotaktowa	!
.	.	.	.	8aa\	8a\	-pu-	8cc\	in
!	!	!	!LO:TX:t=P:problem: kreska pseudotaktowa	!	!	!	!	!
.	.	.	16dd\Jk	.	.	.	.	.
=128-	=128-	=128-	=128-	=128-	=128-	=128-	=128-	=128-
4BB-/	7:6	4BB-/	8dd\L	8aa\L	4b-\	-lis	8dd\	po-
.	.	.	8dd\	8gg\	.	.	8dd\	-pu-
4B-\	6	4B-\	8dd\	8gg\	4r	.	4dd\	-lis
.	.	.	8b-\J	8gg\J	.	.	.	.
!	!	!	!LO:TX:t=P:problem: kreska pseudotaktowa	!	!	!	!	!
4A\	7:6	4A\	2cc\	8gg\L	4r	.	4r	.
.	.	.	.	8ff\J	.	.	.	.
!LO:TX:t=P:problem: kreska pseudotaktowa	!	!	!	!	!	!	!	!
4AA/	6	4AA/	.	2ff\	8a\	no-	8cc\	no-
!	!	!	!	!	!LO:TX:t=P:problem: kreska pseudotaktowa	!	!LO:TX:t=P:problem: kreska pseudotaktowa	!
.	.	.	.	.	8a\	-tas	8cc\	-tas
=129-	=129-	=129-	=129-	=129-	=129-	=129-	=129-	=129-
4D/	6 5	4D/	2r	.	8a\	fa-	8.b-y\	fa-
.	.	.	.	.	8g/	-ci-	.	.
.	.	.	.	.	.	.	16b-\	-ci-
4E\	5-r	4E\	.	4gg\	8g/	-te	8b-\	-te
.	.	.	.	.	8g/	in	8a\	in
!	!	!	!	!	!LO:LB:g=original	!	!	!
4F\	5 9:8	4F\	4r	4cc\	8g/	po-	8.a\	po-
.	.	.	.	.	8f/	-pu-	.	.
.	.	.	.	.	.	.	16a\	-pu-
!	!	!LO:TX:t=P:problem: kreska pseudotaktowa	!	!	!	!	!	!
4FF/	6	4FF/	8dd\L	8ff\L	4f/	-lis	8a\	-lis
!	!	!	!	!LO:TX:t=P:problem: kreska pseudotaktowa	!	!	!LO:TX:t=P:problem: kreska pseudotaktowa	!
.	.	.	8dd\J	8ff\J	.	.	8a\	in
=130-	=130-	=130-	=130-	=130-	=130-	=130-	=130-	=130-
4GG/	6| 5 -	4GG/	8dd\L	8ee\L	2r	.	4b-\	po-
.	.	.	8cc\	8ee\	.	.	.	.
4AA/	.	4AA/	8cc\	8ee\	.	.	4cc\	-pu-
.	.	.	8cc\J	8dd\J	.	.	.	.
!	!	!	!LO:TX:t=P:problem: kreska pseudotaktowa	!	!	!	!	!
4BB-/	.	4BB-/	2b-/	4.dd\	4rb	.	4f/	-lis
!LO:TX:t=P:problem: kreska pseudotaktowa	!	!	!	!	!	!	!	!
4B-\	.	4B-\	.	.	8dd\	no-	8b-\	no-
!	!	!	!	!LO:TX:t=P:problem: kreska pseudotaktowa	!LO:TX:t=P:problem: kreska pseudotaktowa	!	!LO:TX:t=P:problem: kreska pseudotaktowa	!
.	.	.	.	8dd\	8dd\	-tas	8b-\	-tas
=131-	=131-	=131-	=131-	=131-	=131-	=131-	=131-	=131-
4E\	6 5	4E\	4r	4gg\	8cc\	fa-	8b-\	fa-
.	.	.	.	.	8cc\	-ci-	8a\	-ci-
4F#X\	6 5	4F#X\	8a/L	4aa\	8cc\	-te	8a\	-te
.	.	.	8a/J	.	8dd\	in	8a\	in
4G\	9:8	4G\	2b-/	4dd\	8b-\	po-	8a\	po-
*	*	*	*	*	*	*	*custos:g	*
!	!	!	!	!	!	!	!LO:LB:g=original	!
.	.	.	.	.	8b-\	-pu-	8g/	-pu-
!	!	!LO:TX:t=P:problem: kreska pseudotaktowa	!	!	!LO:TX:t=P:problem: kreska pseudotaktowa	!	!LO:TX:t=P:problem: kreska pseudotaktowa	!
4GG/	.	4GG/	.	8gg\L	4b-\	-lis	4g/	-lis
!	!	!	!	!LO:TX:t=P:problem: kreska pseudotaktowa	!	!	!	!
.	.	.	.	8gg\J	.	.	.	.
=132-	=132-	=132-	=132-	=132-	=132-	=132-	=132-	=132-
4CC/	.	4CC/	4cc\	8ee\L	4rb	.	4r	.
.	.	.	.	8ee\J	.	.	.	.
4C/	.	4C/	8cc\L	4ee\	8cc\	a-	8g/	a-
.	.	.	8cc\J	.	8cc\	-cti-	8g/	-cti-
4C/	4| 2	4C/	4a/	4ff#X\	4.dd\	-o-	4a\	-o-
!LO:TX:t=P:problem: kreska pseudotaktowa	!	!	!	!	!	!	!LO:TX:t=P:problem: kreska pseudotaktowa	!
4BB-/	6	4BB-/	4dd\	4gg\	.	.	4b-\	-nes
!	!	!	!	!	!LO:TX:t=P:problem: kreska pseudotaktowa	!	!	!
.	.	.	.	.	8g/	-nes	.	.
=133-	=133-	=133-	=133-	=133-	=133-	=133-	=133-	=133-
4C/	- 6 5	4C/	4ee-X\	2aa\	(4.g/	e-	2a\	e-
4D/	#	4D/	4dd\	.	.	.	.	.
.	.	.	.	.	8f#X/)	.	.	.
!	!	!	!	!	!	!	!LO:N:acc=#	!
4G\	#	4G\	4dd\	4gg\	4g/	-ius	4bn\	-ius
!	!	!LO:TX:t=P:problem: kreska pseudotaktowa	!	!	!	!	!	!
!	!	!LO:TX:a:t=voci	!	!	!	!	!LO:TX:t=P:problem: kreska pseudotaktowa	!
4GG/	#	4GG/	4r	4rff	8g/	no-	4rb	.
.	.	.	.	.	8g/	-tas	.	.
*	*	*	*	*	*custos:f	*	*	*
!	!	!	!	!LO:LB:g=original	!LO:LB:g=original	!	!	!
=134-	=134-	=134-	=134-	=134-	=134-	=134-	=134-	=134-
!	!	!	!LO:TX:a:t=4	!LO:TX:a:t=5.	!	!	!	!
4AA/	6	4AA/	00r	00r	8fny/	fa-	2r	.
.	.	.	.	.	8f/	-ci-	.	.
!LO:N:acc=#	!	!LO:N:acc=#	!	!	!	!	!	!
4BBn/	5-r	4BBn/	.	.	8f/	-te	.	.
.	.	.	.	.	8f/	in	.	.
4C/	.	4C/	.	.	8e/	po-	4r	.
.	.	.	.	.	16e/	-pu-	.	.
.	.	.	.	.	16e/	-lis	.	.
4CC/	6	4CC/	.	.	8a\	no-	8cc\	no-
!	!	!	!	!	!LO:TX:t=P:problem: kreska pseudotaktowa	!	!LO:TX:t=P:problem: kreska pseudotaktowa	!
.	.	.	.	.	8a\	-tas	8cc\	-tas
*custos:DD	*	*custos:DD	*	*	*	*	*	*
!LO:LB:g=original	!	!LO:LB:g=original	!	!	!	!	!	!
=135-	=135-	=135-	=135-	=135-	=135-	=135-	=135-	=135-
4DD/	6 5	4DD/	.	.	8a\	fa-	8b-y\	fa-
.	.	.	.	.	8g/	-ci-	8b-\	-ci-
4EE/	5-r	4EE/	.	.	8g/	-te	8b-\	-te
.	.	.	.	.	8g/	in	8a\	in
4FF/	9:8	4FF/	.	.	8g/	po-	8a\	po-
.	.	.	.	.	8g/	-pu-	8a\	-pu-
4Fny\	.	4GG/	.	.	8g/	-lis	8a\	-lis
!	!	!	!	!	!LO:TX:t=P:problem: kreska pseudotaktowa	!	!LO:TX:t=P:problem: kreska pseudotaktowa	!
.	.	.	.	.	8a\	in	8cc\	in
=136-	=136-	=136-	=136-	=136-	=136-	=136-	=136-	=136-
4BB-y/	.	4BB-y/	.	.	4b-\	po-	4dd\	po-
4C/	6:5	4C/	.	.	8a\	-pu-	8cc\	-pu-
.	.	.	.	.	8g/	-lis	8b-\	-lis
4D/	.	4D/	.	.	8f/	a-	8a\	a-
.	.	.	.	.	8g/	-ctio-	8b-\	-ctio-
!LO:TX:t=P:problem: kreska pseudotaktowa	!	!LO:TX:t=P:problem: kreska pseudotaktowa	!	!	!	!	!	!
4AA/	6	4AA/	.	.	8a\L	.	8cc\L	.
.	.	.	.	.	16g\L	.	16b-\L	.
.	.	.	.	.	16f\JJ	.	16a\JJ	.
*	*	*	*	*	*custos:e	*	*custos:g	*
!	!	!	!	!	!LO:PB:g=original	!	!LO:LB:g=original	!
=137-	=137-	=137-	=137-	=137-	=137-	=137-	=137-	=137-
4C/	.	4C/	.	.	8e/L	.	8g\L	.
.	.	.	.	.	8f/J	.	8a\J	.
4GG/	.	4GG/	.	.	8g/L	.	8b-\L	.
.	.	.	.	.	16f/L	.	16a\L	.
.	.	.	.	.	16e/JJ	.	16g\JJ	.
4BB-/	.	4BB-/	.	.	8d/L	.	8f\L	.
.	.	.	.	.	8e/J	.	8g\	.
4FF/	.	4FF/	.	.	2f/	.	8a\	.
!	!	!	!	!	!	!	!LO:TX:t=P:problem: kreska pseudotaktowa	!
.	.	.	.	.	.	.	8b-\J	.
=138-	=138-	=138-	=138-	=138-	=138-	=138-	=138-	=138-
4AA/	6	4AA/	2r	1r	.	.	4cc\	.
4BB-/	.	4BB-/	.	.	4f/	nes	4dd\	nes
4C/	5 4:3	4C/	4r	.	(4.f/	e-	2g/	e-
!LO:TX:t=P:problem: kreska pseudotaktowa	!	!LO:TX:t=P:problem: kreska pseudotaktowa	!	!	!	!	!	!
4CC/	.	4CC/	8cc\L	.	.	.	.	.
!	!	!	!	!	!LO:TX:t=P:problem: kreska pseudotaktowa	!	!	!
.	.	.	8cc\J	.	8e/)	.	.	.
*	*	*	*custos:a	*	*	*	*	*
!	!	!	!LO:LB:g=original	!	!	!	!	!
=139-	=139-	=139-	=139-	=139-	=139-	=139-	=139-	=139-
4FF/	.	4FF/	8a/L	4rdd	4f/	-ius	4a\	-ius
.	.	.	8a/J	.	.	.	.	.
!LO:TX:b:t=inst&colon;	!	!LO:TX:a:t=instr&colon;	!	!	!	!	!	!
4F\	6	4Fny\	8dd\L	8ffny\L	4re	.	4r	.
.	.	.	8dd\J	8ff\J	.	.	.	.
4G\	6-r 5	4G\	8dd\L	8ee-X\L	2rf	.	2r	.
.	.	.	8cc\	8ee-\	.	.	.	.
4A\	5-r 3	4A\	8cc\	8ee-\	.	.	.	.
!	!	!	!LO:TX:t=P:problem: kreska pseudotaktowa	!LO:TX:t=P:problem: kreska pseudotaktowa	!	!	!	!
.	.	.	8cc\J	8ee-\J	.	.	.	.
=140-	=140-	=140-	=140-	=140-	=140-	=140-	=140-	=140-
4B-\	.	4B-\	8b-/L	8dd\L	0r	.	0r	.
.	.	.	16a/L	16cc\L	.	.	.	.
.	.	.	16g/JJ	16b-\JJ	.	.	.	.
4d\	.	4d\	8f/L	8a/L	.	.	.	.
.	.	.	8g/J	8b-/J	.	.	.	.
4A\	.	4A\	8a/L	8cc\L	.	.	.	.
.	.	.	16g/L	16b-\L	.	.	.	.
.	.	.	16f/JJ	16a\JJ	.	.	.	.
!LO:TX:t=P:problem: kreska pseudotaktowa	!	!LO:TX:t=P:problem: kreska pseudotaktowa	!	!	!	!	!	!
4c\	.	4c\	8e/L	8g/L	.	.	.	.
!	!	!	!LO:TX:t=P:problem: kreska pseudotaktowa	!LO:TX:t=P:problem: kreska pseudotaktowa	!	!	!	!
.	.	.	8f/J	8a/J	.	.	.	.
=141-	=141-	=141-	=141-	=141-	=141-	=141-	=141-	=141-
4G\	.	4G\	8g/L	8b-/L	.	.	.	.
.	.	.	16f/L	16a/L	.	.	.	.
.	.	.	16e/JJ	16g/JJ	.	.	.	.
4B-\	.	4B-\	8d/L	8f/L	.	.	.	.
.	.	.	8e/J	8g/J	.	.	.	.
4F\	.	4F\	8f/L	8a\L	.	.	.	.
.	.	.	8g/	8b-\	.	.	.	.
4FF/	.	4FF/	8a/	8cc\	.	.	.	.
!	!	!	!LO:TX:t=P:problem: kreska pseudotaktowa	!	!	!	!	!
!	!	!	!LO:TX:t=P:problem: # below	!	!	!	!	!
!	!	!	!LO:N:acc=#	!LO:TX:t=P:problem: kreska pseudotaktowa	!	!	!	!
.	.	.	8bn/J	8dd\J	.	.	.	.
=142-	=142-	=142-	=142-	=142-	=142-	=142-	=142-	=142-
!	!	!	!	!	!LO:TX:t=P:problem:w źródle brak pauzy, na górze dopisek ołówkiem "[nieczytelne] misssing"	!	!	!
4C/	.	4C/	4.cc\	8eeny\L	1ryy	.	1r	.
.	.	.	.	8ff\J	.	.	.	.
4E\	6	4E\	.	8gg\L	.	.	.	.
.	.	.	8cc\	16ff\L	.	.	.	.
.	.	.	.	16ee\JJ	.	.	.	.
4G\	5 4	4G\	4.cc\	4.dd\	.	.	.	.
!LO:TX:t=P:problem: kreska pseudotaktowa	!	!LO:TX:t=P:problem: kreska pseudotaktowa	!	!	!	!	!	!
4GG/	#	4GG/	.	.	.	.	.	.
!	!	!	!LO:TX:t=P:problem: # below	!	!	!	!	!
!	!	!	!LO:N:acc=#	!	!	!	!	!
.	.	.	8bn/	8dd\	.	.	.	.
=143-	=143-	=143-	=143-	=143-	=143-	=143-	=143-	=143-
4CC/	.	4CC/	4cc\	4ee\	2r	.	4rb	.
!	!	!LO:TX:a:t=voci.	!	!	!	!	!	!
4.C/	.	4.C/	4r	4r	.	.	8eeny\	no-
.	.	.	.	.	.	.	8ee\	-tas
!	!	!	!LO:TX:t=P:problem: kreska pseudotaktowa	!LO:TX:t=P:problem: kreska pseudotaktowa	!	!	!	!
.	.	.	2r	2rdd	4r	.	8ee\	fa-
!LO:N:acc=#	!	!LO:N:acc=#	!	!	!	!	!	!
8BBn/	6	8BBn/	.	.	.	.	8dd\	-ci-
4BB/	6	4BB/	.	.	8g/	no-	8dd\	-te
!	!	!	!	!	!LO:TX:t=P:problem: kreska pseudotaktowa	!	!LO:TX:t=P:problem: kreska pseudotaktowa	!
.	.	.	.	.	8g/	-tas	8dd\	in
*	*	*custos:AA	*	*	*	*	*	*
!LO:LB:g=original	!	!LO:LB:g=original	!	!	!	!	!	!
=144-	=144-	=144-	=144-	=144-	=144-	=144-	=144-	=144-
4AA/	7:6|	4AA/	4r	2rff	8g/	fa-	8cc\	po-
.	.	.	.	.	8f#X/	-ci-	8cc\	-pu-
4A\	6|	4A\	8cc\L	.	8f#/	-te	8cc\	-lis
.	.	.	8cc\J	.	8g/	in	8cc\	in
!	!	!	!LO:N:acc=#	!	!	!	!	!
4G\	6|	4G\	8bn/L	4r	8g/	po-	4.ee\	po-
.	.	.	8b/	.	8g/	-pu-	.	.
4GG/	6|	4GG/	8b/	8ee\L	8g/	-lis	.	.
!	!	!	!	!LO:TX:t=P:problem: kreska pseudotaktowa	!LO:TX:t=P:problem: kreska pseudotaktowa	!	!LO:TX:t=P:problem: kreska pseudotaktowa	!
.	.	.	8a/J	8ee\J	8g/	in	8ee\	-pu-
*	*	*	*custos:a	*	*	*	*	*
!	!	!	!LO:LB:g=original	!	!	!	!	!
=145-	=145-	=145-	=145-	=145-	=145-	=145-	=145-	=145-
4FF/	7:6	4FF/	8a/L	8ee\L	8a\	po-	4ff\	-lis
.	.	.	8a/	8dd\	8a\	-pu-	.	.
*	*	*	*	*	*	*	*	*
4F\	6	4F\	8a/	8dd\	4a\	-lis	4rdd	.
.	.	.	8g/J	8dd\J	.	.	.	.
*	*	*	*	*custos:dd	*	*	*custos:ee	*
!	!	!	!LO:TX:t=P:problem: kreska pseudotaktowa	!LO:LB:g=original	!	!	!LO:LB:g=original	!
4E\	7:6	4E\	2g/	8dd\L	4r	.	4r	.
.	.	.	.	8cc\J	.	.	.	.
!LO:TX:t=P:problem: kreska pseudotaktowa	!	!LO:TX:t=P:problem: kreska pseudotaktowa	!	!LO:TX:t=P:problem: kreska pseudotaktowa	!	!	!	!
4EE/	6	4EE/	.	4cc\	8g/	no-	8ee\	no-
!	!	!	!	!	!	!	!LO:TX:t=P:problem: kreska pseudotaktowa	!
.	.	.	.	.	8g/	-tas	8ee\	-tas
*	*	*	*	*	*custos:f	*	*	*
!	!	!	!	!	!LO:LB:g=original	!	!	!
=146-	=146-	=146-	=146-	=146-	=146-	=146-	=146-	=146-
4AA/	5 6	4AA/	2r	4cc\	8fny/	fa-	8ee\	fa-
.	.	.	.	.	8f/	-ci-	8dd\	-ci-
!LO:N:acc=#	!	!LO:N:acc=#	!	!	!	!	!	!
4BBn/	5-r	4BBn/	.	4dd\	8.f/	-te	8dd\	-te
.	.	.	.	.	.	.	8dd\	in
.	.	.	.	.	16e/	in	.	.
4C/	9:8	4C/	4r	4g/	8e/	po-	8dd\	po-
.	.	.	.	.	8e/	-pu-	8cc\	-pu-
4CC/	6	4CC/	8aa\L	8cc\L	8e/	-lis	4cc\	-lis
!	!	!	!LO:TX:t=P:problem: kreska pseudotaktowa	!LO:TX:t=P:problem: kreska pseudotaktowa	!LO:TX:t=P:problem: kreska pseudotaktowa	!	!	!
.	.	.	8aa\J	8cc\J	8e/	in	.	.
=147-	=147-	=147-	=147-	=147-	=147-	=147-	=147-	=147-
4DD/	6-r	4DD/	8aa\L	8b-/L	4f/	po-	0r	.
.	.	.	8gg\	8b-/	.	.	.	.
4EE/	5-r	4EE/	8gg\	8b-/	4g/	-pu-	.	.
.	.	.	8gg\J	8a/J	.	.	.	.
!	!	!	!LO:TX:t=P:problem: kreska pseudotaktowa	!	!	!	!	!
4FF/	.	4FF/	2ff\	4a/	4c/	-lis	.	.
!LO:TX:t=P:problem: kreska pseudotaktowa	!	!LO:TX:t=P:problem: kreska pseudotaktowa	!	!	!	!	!	!
4F\	.	4F\	.	8a/L	4rc	.	.	.
!	!	!	!	!LO:TX:t=P:problem: kreska pseudotaktowa	!	!	!	!
.	.	.	.	8a/J	.	.	.	.
=148-	=148-	=148-	=148-	=148-	=148-	=148-	=148-	=148-
4G\	.	4G\	4r	8b-/L	0re	.	.	.
.	.	.	.	8b-/	.	.	.	.
4GG/	.	4GG/	8dd\L	8b-/	.	.	.	.
.	.	.	8dd\J	8b-/J	.	.	.	.
4C/	7 #	4C/	8eeny\L	2b-/	.	.	.	.
.	.	.	8ee\	.	.	.	.	.
4CC/	7 #	4CC/	8.ee\	.	.	.	.	.
!	!	!	!LO:TX:t=P:problem: kreska pseudotaktowa	!	!	!	!	!
.	.	.	16ff\Jk	.	.	.	.	.
=149-	=149-	=149-	=149-	=149-	=149-	=149-	=149-	=149-
4FF/	#	4FF/	4ff\	2a/	.	.	1r	.
!LO:TX:t=P:problem: # below	!	!	!	!	!	!	!	!
4FF#X/	6	4FF#X/	8dd\L	.	.	.	.	.
.	.	.	8cc\J	.	.	.	.	.
!	!	!	!LO:N:acc=#	!	!	!	!	!
4GG/	#	4GG/	8bni\L	4d/	.	.	.	.
.	.	.	8b\	.	.	.	.	.
!LO:TX:t=P:problem: kreska pseudotaktowa	!	!LO:TX:t=P:problem: kreska pseudotaktowa	!	!LO:N:acc=#	!	!	!	!
4GG#X/	6	4GG#X/	8ee\	8bn/L	.	.	.	.
!	!	!	!	!LO:TX:t=P:problem: kreska pseudotaktowa	!	!	!	!
.	.	.	8dd\J	8b/J	.	.	.	.
=150-	=150-	=150-	=150-	=150-	=150-	=150-	=150-	=150-
4AA/	.	4AA/	2cc\	8cc\L	2rf	.	4rb	.
.	.	.	.	8cc\	.	.	.	.
4AA/	.	4AA/	.	8aa\	.	.	8cc\	no-
.	.	.	.	8gg\J	.	.	8cc\	-tas
!LO:N:acc=#	!	!LO:N:acc=#	!LO:TX:t=P:problem: kreska pseudotaktowa	!	!	!	!	!
4BBn/	6	4BBn/	2r	2gg\	4re	.	8dd\	fa-
.	.	.	.	.	.	.	8dd\	-ci-
4C/	.	4C/	.	.	8e/	no-	8ee\	-te
!	!	!	!	!	!LO:TX:t=P:problem: kreska pseudotaktowa	!	!LO:TX:t=P:problem: kreska pseudotaktowa	!
.	.	.	.	.	8e/	-tas	8ee\	in
=151-	=151-	=151-	=151-	=151-	=151-	=151-	=151-	=151-
4D/	#	4D/	4r	2rdd	8f#X/	fa-	4.dd\	po-
.	.	.	.	.	8f#/	-ci-	.	.
!	!	!	!LO:N:acc=#	!	!	!	!	!
!	!	!	!LO:TX:t=P:problem: # below	!	!	!	!	!
4E\	7 #	4E\	8bn/L	.	8g#X/	-te	.	.
.	.	.	8b/J	.	8g#/	in	8dd\	-pu-
4A\	.	4A\	8b/L	4rdd	8a\	po-	4cc\	-lis
.	.	.	8a/J	.	16a\	-pu-	.	.
.	.	.	.	.	16a\	-lis	.	.
!	!	!LO:TX:t=P:problem: kreska pseudotaktowa	!	!LO:TX:t=P:problem: kreska pseudotaktowa	!	!	!	!
4AA/	.	4AA/	2aa\	4ee\	8a\	ac-	8cc\	a-
!	!	!	!	!	!LO:TX:t=P:problem: kreska pseudotaktowa	!	!	!
.	.	.	.	.	8g#/	-ti-	8cc\	-cti-
*custos:D	*	*	*	*	*	*	*	*
!LO:LB:g=original	!	!	!	!	!	!	!	!
=152-	=152-	=152-	=152-	=152-	=152-	=152-	=152-	=152-
!	!	!	!	!	!	!	!LO:TX:t=P:problem: kreska pseudotaktowa	!
4D/	7:6 #	4D/	.	2dd\	8f#X/	-o-	8cc\	-o-
.	.	.	.	.	8f#/	-nes	8b-\	-nes
*	*	*	*	*	*custos:g	*	*	*
!	!	!	!	!	!LO:LB:g=original	!	!	!
4GGny/	7 #	4GGny/	2gg\	.	8gny/	a-	8b-\	a-
.	.	.	.	.	8f#/	-cti-	8b-\	-cti-
*	*	*	*	*	*	*	*custos:b-	*
!	!	!	!	!	!	!	!LO:LB:g=original	!
4Cny/	.	4C/	.	2cc\	4e/	-o-	4b-\	-o-
*	*	*	*custos:gg	*	*	*	*	*
!	!	!	!LO:LB:g=original	!	!LO:TX:t=P:problem: kreska pseudotaktowa	!	!LO:TX:t=P:problem: kreska pseudotaktowa	!
4FFny/	6 5	4FFny/	4ff\	.	4f#/	-nes	4a\	-nes
=153-	=153-	=153-	=153-	=153-	=153-	=153-	=153-	=153-
4BB-y/	.	4BB-y/	4.gg\	4dd\	(4.fny/	e-	2g/	e-
4C/	.	4C/	.	4cc\	.	.	.	.
.	.	.	8gg\	.	8e/)	.	.	.
!	!	!	!LO:TX:b:t=verte cito	!	!	!	!	!
4FF/	.	4FF/	2ff\	2cc\	4f/	-ius	4a\	-ius
!LO:TX:t=P:problem: kreska pseudotaktowa	!	!	!	!	!	!	!LO:TX:t=P:problem: kreska pseudotaktowa	!
4F\	.	4F\	.	.	8a\	no-	4r	.
!	!	!	!	!	!LO:TX:t=P:problem: kreska pseudotaktowa	!	!	!
.	.	.	.	.	8a\	-tas	.	.
*	*	*custos:F	*custos:ff	*	*	*	*	*
!	!	!LO:LB:g=original	!LO:PB:g=original	!	!	!	!	!
=154-	=154-	=154-	=154-	=154-	=154-	=154-	=154-	=154-
8F\L	2	8F\L	2r	1r	8g/	fa-	4rb	.
8E\J	.	8E\J	.	.	8g/	-ci-	.	.
4E\	6	4E\	.	.	8g/	-te	8cc\	no-
.	.	.	.	.	8f/	in	8cc\	-tas
4D/	7:6|	4D/	4r	.	8f/	po-	8cc\	fa-
!	!	!	!	!	!	!	!LO:N:acc=#	!
.	.	.	.	.	8f/	-pu-	8bn\	-ci-
4DD/	6|	4DD/	8ff\L	.	8f/	-lis	8b\	-te
!	!	!	!LO:TX:t=P:problem: kreska pseudotaktowa	!	!LO:TX:t=P:problem: kreska pseudotaktowa	!	!LO:TX:t=P:problem: kreska pseudotaktowa	!
.	.	.	8ff\J	.	8f/	in	8cc\	in
*	*	*	*	*custos:aa	*	*	*	*
!	!	!	!	!LO:PB:g=original	!	!	!	!
=155-	=155-	=155-	=155-	=155-	=155-	=155-	=155-	=155-
4CC/	.	4CC/	8ee\L	4rff	4.a\	po-	8cc\	po-
.	.	.	8ee\	.	.	.	8cc\	-pu-
4C/	6	4C/	8.ee\	8aa\L	.	.	8cc\	-lis
.	.	.	.	8aa\J	8a\	-pu-	8cc\	in
.	.	.	16dd\Jk	.	.	.	.	.
4BB-/	7:6	4BB-/	8dd\L	8aa\L	4b-\	-lis	8dd\	po-
.	.	.	8dd\	8gg\	.	.	8dd\	-pu-
!LO:TX:t=P:problem: kreska pseudotaktowa	!	!LO:TX:t=P:problem: kreska pseudotaktowa	!	!	!LO:TX:t=P:problem: kreska pseudotaktowa	!	!LO:TX:t=P:problem: kreska pseudotaktowa	!
4B-\	6	4B-\	8dd\	8gg\	4r	.	4dd\	-lis
!	!	!	!	!LO:TX:t=P:problem: kreska pseudotaktowa	!	!	!	!
.	.	.	8b-y\J	8gg\J	.	.	.	.
=156-	=156-	=156-	=156-	=156-	=156-	=156-	=156-	=156-
4A\	7:6	4A\	2cc\	8gg\L	4r	.	4rb	.
.	.	.	.	8ff\J	.	.	.	.
4AA/	6	4AA/	.	4ff\	8a\	no-	8cc\	no-
.	.	.	.	.	8a\	-tas	8cc,\	-tas
4D/	6 5	4D/	2r	4ff\	8a\	fa-	8b-y\	fa-
.	.	.	.	.	8g/	-ci-	8b-\	-ci-
!	!	!	!	!LO:TX:t=P:problem: kreska pseudotaktowa	!	!	!	!
4E\	5-r	4E\	.	4gg\	8g/	-te	8b-\	-te
.	.	.	.	.	8g/	in	8a\	in
*	*	*	*	*	*custos:g	*	*custos:a	*
!	!	!	!	!	!LO:LB:g=original	!	!LO:LB:g=original	!
=157-	=157-	=157-	=157-	=157-	=157-	=157-	=157-	=157-
*	*	*	*clefC1	*	*	*	*	*
*	*	*	*k[b-]	*	*	*	*	*
4F\	9:8	4F\	4r	4cc\	8g/	po-	8a\	po-
.	.	.	.	.	8f/	-pu-	8a\	-pu-
4FF/	6	4FF/	8dd\L	8ff\L	4f/	-lis	8a\	-lis
.	.	.	8dd\J	8ff\J	.	.	8a\	in
!	!	!	!	!	!LO:TX:t=P:problem: kreska pseudotaktowa	!	!	!
4GG/	6-r 5	4GG/	8dd\L	8ee-X\L	2rf	.	4b-\	po-
.	.	.	8cc\	8ee-\	.	.	.	.
!LO:TX:t=P:problem: kreska pseudotaktowa	!	!LO:TX:t=P:problem: kreska pseudotaktowa	!	!	!	!	!LO:TX:t=P:problem: kreska pseudotaktowa	!
4AA/	5-r 3	4AA/	8cc\	8.ee-\	.	.	4cc\	-pu-
!	!	!	!LO:TX:t=P:problem: kreska pseudotaktowa	!	!	!	!	!
.	.	.	8cc\J	.	.	.	.	.
!	!	!	!	!LO:TX:t=P:problem: kreska pseudotaktowa	!	!	!	!
.	.	.	.	16dd\Jk	.	.	.	.
=158-	=158-	=158-	=158-	=158-	=158-	=158-	=158-	=158-
4BB-/	.	4BB-/	2b-\	4.dd\	4rb	.	4f/	-lis
4B-\	.	4B-\	.	.	8dd\	no-	8b-\	no-
.	.	.	.	8dd\	8dd\	-tas	8b-\	-tas
4E\	6 5-r	4E\	4r	4gg\	8cc\	fa-	8b-\	fa-
.	.	.	.	.	8cc\	-ci-	8a\	-ci-
!	!	!	!	!LO:TX:t=P:problem: kreska pseudotaktowa	!	!	!	!
4F#X\	6 5-r	4F#X\	8a\L	4aa\	8cc\	-te	8a\	-te
!	!	!	!	!	!LO:TX:t=P:problem: kreska pseudotaktowa	!	!LO:TX:t=P:problem: kreska pseudotaktowa	!
.	.	.	8a\J	.	8dd\	in	8a\	in
*custos:G	*	*	*	*	*	*	*	*
!LO:LB:g=original	!	!	!	!	!	!	!	!
=159-	=159-	=159-	=159-	=159-	=159-	=159-	=159-	=159-
4G\	9:8	4G\	2b-\	4dd\	8b-\	po-	8a\	po-
.	.	.	.	.	8b-\	-pu-	8g/	-pu-
4GG/	.	4GG/	.	2gg\	4b-\	-lis	4g/	-lis
4C/	.	4C/	4r	.	4.cc\	a-	4e/	a-
!	!	!LO:TX:t=P:problem: kreska pseudotaktowa	!	!	!	!	!LO:TX:t=P:problem: kreska pseudotaktowa	!
4AA/	6	4AA/	4ff\	4aa\	.	.	4f/	-cti-
!	!	!	!	!	!LO:TX:t=P:problem: kreska pseudotaktowa	!	!	!
.	.	.	.	.	8cc\	-cti-	.	.
=160-	=160-	=160-	=160-	=160-	=160-	=160-	=160-	=160-
4BB-/	.	4BB-/	4dd\	4.ff\	4.b-\	-o-	4.f/	-o-
4FF/	.	4FF/	4cc\	.	.	.	.	.
.	.	.	.	8ff\	8a\	-nes	8f/	-nes
!	!	!	!	!LO:TX:t=P:problem: kreska pseudotaktowa	!	!	!	!
4BB-/	6 5	4BB-/	4dd\	2gg\	2g/	e-	(4.f/	e-
!LO:TX:t=P:problem: kreska pseudotaktowa	!	!	!LO:TX:t=P:problem: kreska pseudotaktowa	!	!	!	!	!
4C/	.	4C/	4cc\	.	.	.	.	.
!	!	!	!	!	!	!	!LO:TX:t=P:problem: kreska pseudotaktowa	!
.	.	.	.	.	.	.	8e/)	.
=161-	=161-	=161-	=161-	=161-	=161-	=161-	=161-	=161-
4FF/	.	4FF/	4cc\	4ff\	4a\	-ius	4f/	-ius
*	*	*	*	*	*	*	*	*
4r	.	4r	4r	4r	4r	.	4re	.
*	*	*	*	*	*	*	*custos:cc	*
!	!	!	!LO:LB:g=original	!	!	!	!LO:LB:g=original	!
4r	.	4r	4r	4r	4r	.	4rb	.
!	!	!	!LO:TX:t=P:problem: kreska pseudotaktowa	!	!	!	!	!
4Fny\	.	4Fny\	4f/	4ff\	8a\	a-	8cc\	a-
!	!	!	!	!	!LO:TX:t=P:problem: kreska pseudotaktowa	!	!LO:TX:t=P:problem: kreska pseudotaktowa	!
.	.	.	.	.	8a\	-cti-	8cc\	-cti-
*	*	*	*	*custos:ff	*	*	*	*
!	!	!	!	!LO:LB:g=original	!	!	!	!
=162-	=162-	=162-	=162-	=162-	=162-	=162-	=162-	=162-
2D/	6	2D/	4d/	2ff\	2b-\	-o-	4dd\	-o-
.	.	.	4e/	.	.	.	4ee\	.
2AA/	6:5	2AA/	2f/	2ff\	2cc\	-nes	4ff\	.
!	!	!	!	!	!	!	!LO:TX:t=P:problem: kreska pseudotaktowa	!
.	.	.	.	.	.	.	4ee\	-nes
*	*	*	*	*	*custos:cc	*	*	*
!	!	!	!	!	!LO:LB:g=original	!	!	!
=163-	=163-	=163-	=163-	=163-	=163-	=163-	=163-	=163-
1BB-	10 9:6:8	1BB-	1d	1ff	4cc\	e-	1dd	e-
.	.	.	.	.	8b-\L	.	.	.
.	.	.	.	.	8a\J	.	.	.
.	.	.	.	.	2b-\	.	.	.
=164-	=164-	=164-	=164-	=164-	=164-	=164-	=164-	=164-
1FFl;	.	1FFl;	1dl;	1ffl;<	1al;	-ius	1ccl;	-ius.
==	==	==	==	==	==	==	==	==
*-	*-	*-	*-	*-	*-	*-	*-	*-
!!!system-decoration: [(s1,s2)][(s3,s4,s5)]s6
!!!RDF**kern: > = above
!!!RDF**kern: < = below
!!!RDF**kern: l = terminal long
!!!RDF**kern: i = editorial accidental
!!!ENC: Marta Opryszak
!!!END: 2022-04-29
!!!ENC: Jan Barakat
!!!END: 2022-11-05
!!!YEC: Copyright 2022 Narodowy Instytut Fryderyka Chopina (https://polishscores.org)
!!!YEM: License CC-BY-4.0 (https://creativecommons.org/licenses/by/4.0)
